!!!!SEGMENT: pl-wn--mus-57--001-003_sowinski-wojciech--messe-breve-credo.krn
!!!cenid: 18xx:3574
!!!COM: Sowiński, Wojciech
!!!COM-rismID: pe30008543
!!!CDT: ~1803-1880/03/05
!!!CNT:
!!!OPR: Messe Breve
!!!OTL: Credo
!!!OMV: 003
!!!PDT: 1872
!!!AGN:
!!!SMS-siglum: PL-Wn
!!!SMS-shelfmark: Mus.57
!!!SMS-shelfwork: 001-003 M
!!!SMS-variant:
!!!SMS-altvar:
!!!NIFC-rismSourceID:
!!!NIFC-rismChildID:
!!!NIFC-islandoraID: none
!!!URL-pdf-islandora:
!!!URL-scan: https://polona.pl/item/messe-breve-a-deux-voix-egales-avec-accompagnement-d-orgue-composee-pour-l-eglise-de,NDI0MDY1OTQ/1 @EN{Scan on Polona} @PL{Skany w portalu Polona}
!!!ONB-nifc: UWAGA: części Mszy: 1. Kyrie, 2. Gloria, 3. Credo, 4. Sanctus, 5. Benedictus, 6. Agnus Dei
!!!AIN: 1 bass 1 organ 1 tenor
!!!key: B-
**kern	**fing	**kern	**dynam	**kern	**text	**dynam	**kern	**text	**dynam
*	*	*	*	*group1	*	*	*group1	*	*
*part3	*part3	*part3	*part3	*part2	*part2	*part2	*part1	*part1	*part1
*staff4	*staff4	*staff3	*	*staff2	*staff2	*	*staff1	*staff1	*
*I"Orgue	*	*I"Orgue	*	*I"Basse	*	*	*I"Tenor ou Bariton	*	*
*Iorgan	*	*Iorgan	*	*Ibass	*	*	*Itenor	*	*
*ICklav	*	*ICklav	*	*ICvox	*	*	*ICvox	*	*
*clefF4	*	*clefG2	*	*clefF4	*	*	*clefG2	*	*
*	*	*	*	*	*	*	*ITrd8c12	*	*
*k[b-e-]	*	*k[b-e-]	*	*k[b-e-]	*	*	*k[b-e-]	*	*
*B-:	*	*B-:	*	*B-:	*	*	*B-:	*	*
*M4/4	*	*M4/4	*	*M4/4	*	*	*M4/4	*	*
*met(c)	*	*met(c)	*	*met(c)	*	*	*met(c)	*	*
*all\right	*	*all\right	*	*all\right	*	*	*all\right	*	*
=1	=1	=1	=1	=1	=1	=1	=1	=1	=1
*xywh-11:28,1363,5228,1389	*	*xywh-11:28,1363,5228,1389	*	*xywh-11:37,929,5254,668	*	*	*xywh-11:63,34,5245,1033	*	*
!	!	!LO:TX:a:Bi:t=All° giusto	!	!	!	!	!	!	!
2BB- 2BBB-/	.	2b- 2f 2d/	f	1ryy	.	.	1ryy	.	.
4C 4CC/	.	4a 4f 4e-/	.	.	.	.	.	.	.
4D 4DD/	.	4b- 4f 4d/	.	.	.	.	.	.	.
=2	=2	=2	=2	=2	=2	=2	=2	=2	=2
*	*	*^	*	*	*	*	*	*	*
4E- 4EE-\	.	4g/	4B-\	.	1ryy	.	.	1ryy	.	.
2F 2FF^>/	.	4a 4f 4A/	4ryy	.	.	.	.	.	.	.
*	*	*2\right	*	*	*	*	*	*	*	*
!	!	!LO:N:vis=2	!	!	!	!	!	!	!	!
.	.	4f/	[>2f\	.	.	.	.	.	.	.
4E- 4EE-/	.	8g/L	.	.	.	.	.	.	.	.
.	.	8a/J	.	.	.	.	.	.	.	.
*	*	*v	*v	*	*	*	*	*	*	*
=3	=3	=3	=3	=3	=3	=3	=3	=3	=3
4D 4DD/	.	4b- 4f\]	.	1ryy	.	.	1ryy	.	.
4AA 4AAA/	.	4cc 4f\	.	.	.	.	.	.	.
4BB- 4BBB-/	.	4dd 4f\	.	.	.	.	.	.	.
4GG 4GGG/	.	4ee- 4b- 4e-\	.	.	.	.	.	.	.
=4	=4	=4	=4	=4	=4	=4	=4	=4	=4
4FF 4FFF/	.	4dd 4b- 4f\	.	1ryy	.	.	1ryy	.	.
4r	.	4r	.	.	.	.	.	.	.
4F 4FF\	.	4cc 4a 4f\	.	.	.	.	.	.	.
4r	.	4r	.	.	.	.	.	.	.
=5	=5	=5	=5	=5	=5	=5	=5	=5	=5
*	*	*^	*	*	*	*	*	*	*
*2\right	*	*	*	*	*2\right	*	*	*2\right	*	*
!	!	!	!	!	!	!	!LO:DY:a	!	!	!LO:DY:a
2BB- 2BBB-\	.	2b- 2f 2d/	2ryy	f	2BB-\	Cre-	f	2B-\	Cre-	f
4C 4CC\	.	4a/	8aL 8f\	.	4C\	-do	.	4A\	-do	.
.	.	.	8e-\J	.	.	.	.	.	.	.
4D 4DD\	.	4b-/	4d\	.	4D\	in	.	4B-\	in	.
=6	=6	=6	=6	=6	=6	=6	=6	=6	=6	=6
4E- 4EE-\	.	4g/	4B-\	.	4E-\	u-	.	4G/	u-	.
[>4F [>4FF\	.	4a/	4A\	.	4F\	-num	.	4A/	-num	.
4F] 4FF\]	.	4f/	2f^\	.	4F\	De-	.	4F/	De-	.
4E- 4EE-\	.	8g/L	.	.	4E-\	-um	.	4F/	-um	.
.	.	8a/J	.	.	.	.	.	.	.	.
!!LO:LB:g=original
=7	=7	=7	=7	=7	=7	=7	=7	=7	=7	=7
*xywh-11:28,3804,5193,1207	*	*xywh-11:28,3804,5193,1207	*xywh-11:28,3804,5193,1207	*	*xywh-11:20,3204,5263,720	*	*	*xywh-11:37,2622,5167,651	*	*
!	!	!	!	!	!	!	!LO:HP:a	!	!	!LO:HP:a
4D 4DD\	.	4b-/	4f\	.	4D\	pa-	<	4F/	pa-	<
4C 4CC\	.	4a/	8f\L	<	8E-\	-trem	.	8G/	-trem	.
.	.	.	8e-\J	.	8C\	om-	.	8A/	om-	.
4BB- 4BBB-/	.	4b- 4f/	4d\	.	4BB-/	-ni-	.	4B-\	-ni-	.
4AA 4AAA/	.	4cc 4f/	4c\	.	4AA/	-po-	[[	4c\	-po-	[
=8	=8	=8	=8	=8	=8	=8	=8	=8	=8	=8
4BB- 4BBB-/	.	4dd/	4f 4d\	.	(>4BB-/	-ten-	.	2d\	-ten-	.
4GG 4GGG/	.	4bn/	8g\L	[	4GG/)	.	.	.	.	.
.	.	.	8f\J	.	.	.	.	.	.	.
4C 4CC/	.	8cc/L	4e-\	.	4C/	-tem	.	4c\	-tem	.
.	.	(<8g/	.	.	.	.	.	.	.	.
4r	.	8f#X/	4ryy	.	4G\	fac-	.	4G\	fac-	.
.	.	8g/J)	.	.	.	.	.	.	.	.
*	*	*v	*v	*	*	*	*	*	*	*
=9	=9	=9	=9	=9	=9	=9	=9	=9	=9
2C 2CC/	.	2ee- 2g 2e-\	f	(2C\	-to-	.	(2c\	-to-	.
4D 4DD/	.	4dd 4bn 4g 4fn\	.	4D\)	.	.	4Bn\)	.	.
4E- 4EE-/	.	4cc 4g 4e-\	.	4E-\	-rem	.	4c\	-rem	.
=10	=10	=10	=10	=10	=10	=10	=10	=10	=10
*	*	*^	*	*	*	*	*	*	*
!	!	!	!	!	!	!	!LO:HP:a	!	!	!LO:HP:a
4E- 4EE-/	.	4g/	4c\	.	(4E-\	coe-	<	4G\	coe-	<
4C 4CC/	.	4a/	8f\L	<	8F\L	.	.	4A\	.	.
.	.	.	8e-\J	.	8E-\J	.	.	.	.	.
4BB- 4BBB-/	.	4b-/	4d\	.	4D\)	li	.	4B-X\	-li	.
4GG 4GGG/	.	4cc 4b-/	4en\	[[	4En\	et	[[	4c\	et	[[
*	*	*v	*v	*	*	*	*	*	*	*
=11	=11	=11	=11	=11	=11	=11	=11	=11	=11
2FF 2FFF/	.	2dd 2b- 2f^<\	.	(2.F\	ter-	.	2d\	ter-	.
2F 2FF\	.	2cc 2a 2f^<\	.	.	.	.	2c\	.	.
.	.	.	.	4E-X\)	.	.	.	.	.
=12	=12	=12	=12	=12	=12	=12	=12	=12	=12
4B- 4BB-\	.	4b- 4f 4d/	.	2D\	-rae	.	2B-\	-rae	.
4r	.	8d/L	.	.	.	.	.	.	.
.	.	8e-/J	.	.	.	.	.	.	.
2r	.	4f/	.	2r	.	.	2r	.	.
.	.	4d/	.	.	.	.	.	.	.
=13	=13	=13	=13	=13	=13	=13	=13	=13	=13
!	!	!	!	!	!	!LO:DY:a	!	!	!LO:DY:a
4r	.	[>2B-/	mf	4D\	vi-	p	2.B-\	vi-	p
2BB- 2BBB-/	.	.	.	4BB-\	-si-	.	.	.	.
.	.	2a-X 2f 2B-/]	.	4C\	-bi-	.	.	.	.
4D 4DD/	.	.	.	4D\	-lium	.	4B-\	-si-	.
!!LO:LB:g=original
=14	=14	=14	=14	=14	=14	=14	=14	=14	=14
*xywh-11:11,6053,5263,1302	*	*xywh-11:11,6053,5263,1302	*	*xywh-11:54,5488,5228,616	*	*	*xywh-11:46,4881,5228,660	*	*
4E- 4EE-\	.	2.g 2.e-/	.	4.E-\	om-	.	4.G/	-bi-	.
(8E-\L	.	.	.	.	.	.	.	.	.
8F\J)	.	.	.	8E-\	-ni-	.	8G/	-li-	.
4G\	.	.	.	4E-\	-um	.	4G/	-um	.
(8E-\L	.	4g 4e-/	.	4r	.	.	4r	.	.
8D\J)	.	.	.	.	.	.	.	.	.
=15	=15	=15	=15	=15	=15	=15	=15	=15	=15
*	*	*^	*	*	*	*	*	*	*
2.C\	.	4r	4ryy	.	4En\	et	.	2.c^^\	om-	.
!	!	!	!	!	!	!	!LO:HP:a	!	!	!
.	.	2cc/	4en\	.	4C\	in-	<	.	.	.
.	.	.	4f\	.	4D\	-vi-	.	.	.	.
4En\	.	4b-/	4g [>4c\	.	4E\	-si-	[[	4B-\	-ni-	.
=16	=16	=16	=16	=16	=16	=16	=16	=16	=16	=16
!	!	!	!	!	!	!	!	!LO:SIC:v:l:s=-um	!	!
4F\	.	[2.a 2.f/	4c\]	.	4.F\	-bi-	.	2.A\	-m	.
8F\L	.	.	4ryy	.	.	.	.	.	.	.
8G\J	.	.	.	.	8F\	-li-	.	.	.	.
4A\	.	.	2ryy	.	4F\	-um	.	.	.	.
(8G\L	.	8a\L]	.	.	4r	.	.	4r	.	.
8F\J)	.	8cc\J	.	.	.	.	.	.	.	.
=17	=17	=17	=17	=17	=17	=17	=17	=17	=17	=17
*^	*	*	*	*	*	*	*	*	*	*
4F/	1FF	.	2.ff/	4a\	.	4F\	Et	.	4A\	Et	.
4E-X/	.	.	.	4cc\	.	4E-X\	in	.	4A\	in	.
4D/	.	.	.	4b-\	.	4D\	u-	.	4B-\	u-	.
4BB-/	.	.	4ff/	8dd\L	.	4BB-\	-num	.	(8d\L	-num	.
.	.	.	.	8b-\J	.	.	.	.	8B-\J)	.	.
=18	=18	=18	=18	=18	=18	=18	=18	=18	=18	=18	=18
4C/	2FF\	.	2ff/	4a\	.	(4C\	Do-	.	4.A\	Do-	.
(8F/L	.	.	.	4cc\	.	8F\)	.	.	.	.	.
8E-/J)	.	.	.	.	.	8E-\	-mi-	.	8A\	-mi-	.
[4D/	4BB-\	.	8b-/L	4ryy	.	4D\	-num	.	4B-\	-num	.
.	.	.	[>8cc/J	.	.	.	.	.	.	.	.
4D/]	4AA\	.	4dd 4cc/]	4f#X^\	.	4r	.	.	4r	.	.
*v	*v	*	*	*	*	*	*	*	*	*	*
*	*	*v	*v	*	*	*	*	*	*	*
!!LO:PB:g=original
=19	=19	=19	=19	=19	=19	=19	=19	=19	=19
*xywh-12:11,1519,5346,1217	*	*xywh-12:11,1519,5346,1217	*	*xywh-12:19,897,5328,760	*	*	*xywh-12:19,42,5346,967	*	*
!	!	!	!	!	!	!LO:DY:a	!	!	!
4GG^^\	.	4dd 4b- 4g 4d/	.	4D\	Je-	p	4B-\	Je-	.
!	!	!	!	!	!	!	!	!	!LO:DY:a:rj
4BB- 4BBB-^^\	.	4dd 4g 4d/	.	4BB-\	-sum	.	4G\	-sum	p
4C 4CC^^\	.	4ee- 4g 4e-/	.	(4C\	Chri-	.	(>4A/	Chris-	.
4D 4DD^^\	.	4dd 4f#X/	.	4D\)	.	.	4F#X/)	.	.
=20	=20	=20	=20	=20	=20	=20	=20	=20	=20
*	*	*^	*	*	*	*	*	*	*
2G 2GG\	.	4b-/	4d\	.	2GG/	-stum	.	2G/	-tum	.
.	.	4g/	4ryy	.	.	.	.	.	.	.
2F 2FF\	.	4a/	4fn\	sf <	2r	.	.	2r	.	.
.	.	4a/	8f\L	.	.	.	.	.	.	.
.	.	.	8e-\J	.	.	.	.	.	.	.
*	*	*v	*v	*	*	*	*	*	*	*
=21	=21	=21	=21	=21	=21	=21	=21	=21	=21
!	!	!	!	!	!	!LO:DY:a	!	!	!LO:DY:a
2BB- 2BBB-\	.	2b- 2d/	[ f	2BB-\	Fi-	f	2B-\	Fi-	f
4C 4CC\	.	4a 4f 4e-/	.	4C\	-li-	.	4A\	-li-	.
4D 4DD\	.	4b- 4f 4d/	.	4D\	-um	.	4B-\	-um	.
=22	=22	=22	=22	=22	=22	=22	=22	=22	=22
*	*	*^	*	*	*	*	*	*	*
4E- 4EE-\	.	4g/	8e-\L	.	(4E-\	De-	.	(>4G/	De-	.
.	.	.	8d\J	.	.	.	.	.	.	.
2F 2FF\	.	4a/	4c\	sf	2F\)	.	.	4A/)	.	.
.	.	4f/	2f\	.	.	.	.	2F/	-i	.
4E- 4EE-\	.	8g/L	.	.	4E-\	-i	.	.	.	.
.	.	8a/J	.	.	.	.	.	.	.	.
=23	=23	=23	=23	=23	=23	=23	=23	=23	=23	=23
4D 4DD\	.	4b-/	4f\	.	4D\	u-	.	4B-\	u-	.
4C 4CC\	.	4a/	8aL 8f\	.	4C\	-ni-	.	4A\	-ni-	.
.	.	.	8e-\J	.	.	.	.	.	.	.
4BB- 4BBB-\	.	4b- 4d/	2ryy	.	4BB-\	-ge-	.	4B-\	-ge-	.
4AA 4AAA\	.	4cc 4f 4c/	.	.	4AA\	-ni-	.	4c\	-ni-	.
*	*	*v	*v	*	*	*	*	*	*	*
=24	=24	=24	=24	=24	=24	=24	=24	=24	=24
4BB- 4BBB-/	.	4dd 4f 4d/	.	2BB-\	-tum	.	2d\	-tum	.
!	!	!LO:TX:b:Bi:t=cres_:problem=dynamics with extention lines	!LO:HP:t=cres_	!	!	!	!	!	!
4AA 4AAA/	.	4cc 4f 4c/	<	.	.	.	.	.	.
4BB- 4BBB-/	.	4dd 4f 4d/	.	2r	.	.	2r	.	.
4GG 4GGG/	.	4een 4b- 4en\	[[	.	.	.	.	.	.
!!LO:LB:g=original
=25	=25	=25	=25	=25	=25	=25	=25	=25	=25
*xywh-12:45,3765,5311,1243	*	*xywh-12:45,3765,5311,1243	*	*xywh-12:45,3212,5277,647	*	*	*xywh-12:36,2625,5259,647	*	*
[2FF 2FFF/	.	(8ff\L	mf	4F\	Et	.	1r	.	.
.	.	8cc\	.	.	.	.	.	.	.
.	.	8a\	.	4F\	ex	.	.	.	.
.	.	8cc\J	.	.	.	.	.	.	.
2C 2FF\]	.	8g\L	.	4En\	pa-	.	.	.	.
.	.	8cc\	.	.	.	.	.	.	.
.	.	8dd\	.	4F\	-tre	.	.	.	.
.	.	8cc\J)	.	.	.	.	.	.	.
=26	=26	=26	=26	=26	=26	=26	=26	=26	=26
*^	*	*	*	*	*	*	*	*	*
(4F/	2BB- [>2FF\	.	(8b-\L	.	(4D\	na-	.	1r	.	.
.	.	.	8dd\	.	.	.	.	.	.	.
4En/)	.	.	8cc\	.	4En\)	.	.	.	.	.
.	.	.	8b-\J	.	.	.	.	.	.	.
4F/	4FF\]	.	8a\L	.	2C\	-tum	.	.	.	.
.	.	.	8cc\	.	.	.	.	.	.	.
4r	4ryy	.	8ff\	.	.	.	.	.	.	.
.	.	.	[8f\J)	.	.	.	.	.	.	.
*v	*v	*	*	*	*	*	*	*	*	*
=27	=27	=27	=27	=27	=27	=27	=27	=27	=27
2A 2F\	.	2cc 2f] 2c\	f	4F\	an-	.	4A/	An-	.
.	.	.	.	4F\	-te	.	4A/	-te	.
4En\	.	4cc 4g 4c\	.	4En\	om-	.	4G/	om-	.
4F\	.	4cc 4a 4c\	.	8F\	-ni-	.	8A/	-ni-	.
.	.	.	.	8F\	-a	.	8A/	-a	.
=28	=28	=28	=28	=28	=28	=28	=28	=28	=28
*	*	*^	*	*	*	*	*	*	*
*	*	*	*^	*	*	*	*	*	*	*
4D\	.	2cc/	4f\	2c\	.	4D\	se-	.	4F/	sae-	.
4En\	.	.	4g\	.	.	4En\	-cu-	.	4G/	-cu-	.
2F\	.	2cc/	2a 2c\	2ryy	.	2F\	-la	.	2A/	-la	.
*	*	*v	*v	*v	*	*	*	*	*	*	*
=29	=29	=29	=29	=29	=29	=29	=29	=29	=29
*^	*	*	*	*	*	*	*	*	*
!LO:N:vis=2	!LO:N:n=1:vis=2	!	!	!	!	!	!	!	!	!
4C/	1C 1FF	.	(>8ccL 8f/	.	(4F\	De-	.	(4A\	De-	.
.	.	.	8c/J)	p	.	.	.	.	.	.
(4A/	.	.	8r	.	4A\)	.	.	4c\)	.	.
.	.	.	8c/	.	.	.	.	.	.	.
4G#X/	.	.	(>8bnL 8f/	.	4G#X\	-um	.	4Bn\	-um	.
.	.	.	8d/J)	.	.	.	.	.	.	.
4A/)	.	.	8r	.	4A\	de	.	4c\	de	.
.	.	.	8cc 8c\	.	.	.	.	.	.	.
=30	=30	=30	=30	=30	=30	=30	=30	=30	=30	=30
4B-X^/	2F\	.	(>8ddL 8f\	.	4B-\	De-	.	4d\	De-	.
.	.	.	8d\J)	.	.	.	.	.	.	.
8A/L	.	.	8r	.	(8A\L	.	.	(8c\L	.	.
8G#X/J	.	.	8f/	.	8G#X\J)	.	.	8Bn\J)	.	.
4A\	2ryy	.	(8ccL 8f\	.	4A\	-o	.	4c\	-o	.
.	.	.	8dd\	.	.	.	.	.	.	.
4r	.	.	8cc\	.	4r	.	.	4r	.	.
.	.	.	8ff\J)	.	.	.	.	.	.	.
!!LO:LB:g=original
=31	=31	=31	=31	=31	=31	=31	=31	=31	=31	=31
*xywh-12:-7,5993,5415,1347	*xywh-12:-7,5993,5415,1347	*	*xywh-12:-7,5993,5415,1347	*	*xywh-12:114,5319,5251,803	*	*	*xywh-12:80,4793,5251,785	*	*
!LO:N:vis=2	!	!	!	!	!	!	!	!	!	!
4AA/	2DD\	.	8ffL 8a\	.	(4D\	lu-	.	(>2A/	Lu-	.
.	.	.	8f\J	.	.	.	.	.	.	.
(4F/	.	.	8r	.	4F\)	.	.	.	.	.
.	.	.	8a\	.	.	.	.	.	.	.
4En/	2ryy	.	8g\L	.	4En\	-men	.	4G/)	-men	.
.	.	.	8cc\	.	.	.	.	.	.	.
4F/)	.	.	8a\	.	4F\	de	.	4A/	de	.
.	.	.	8cc\J	.	.	.	.	.	.	.
=32	=32	=32	=32	=32	=32	=32	=32	=32	=32	=32
4D/	2DD\	.	(8ffL 8b-\	.	(4G\	lu-	.	(4B-\	Lu-	.
.	.	.	8f\J)	.	.	.	.	.	.	.
4F/	.	.	8r	.	8F\)	.	.	8A/)	.	.
!	!	!	!LO:TX:Bi:t=cres-cen-do:problem=dynamics with extention lines	!LO:HP:t=cres-cen-do	!	!	!	!	!	!
.	.	.	8f\	<	8F\	-mi-	.	8G#X/	-mi-	.
4D/	2DD\	.	(8a\L	.	4F\	-ne	.	4A/	-ne	.
.	.	.	8f\	.	.	.	.	.	.	.
4F/	.	.	8a\	.	4r	.	.	4r	.	.
.	.	.	8dd\J)	.	.	.	.	.	.	.
=33	=33	=33	=33	=33	=33	=33	=33	=33	=33	=33
!LO:N:vis=2	!	!	!	!	!	!	!	!	!	!
4DD^/	2DD\	.	(8ddL 8f\	.	4D\	De-	.	4F/	De-	.
.	.	.	8d\J)	.	.	.	.	.	.	.
!	!	!	!	!	!	!	!LO:HP:a	!	!	!LO:HP:a
4D/	.	.	8r	.	4D\	-um	<	4F/	-um	<
.	.	.	8d\	.	.	.	.	.	.	.
!LO:N:vis=2	!	!	!	!	!	!	!	!	!	!
4BBB-^/	2BBB-\	.	(8ddL 8g\	.	4BB-\	ve-	.	4Gn/	ve-	.
.	.	.	8d\J)	.	.	.	.	.	.	.
4BB-/	.	.	8r	.	4BB-\	-rum	.	4G/	-rum	.
.	.	.	8d\	.	.	.	.	.	.	.
=34	=34	=34	=34	=34	=34	=34	=34	=34	=34	=34
*	*	*	*^	*	*	*	*	*	*	*
!LO:N:vis=2	!	!	!	!	!	!	!	!	!	!	!
4BBB-^/	2BBB-\	.	8ddL 8g\	2ryy	.	4BB-\	de	.	4G/	de	.
.	.	.	(8d\	.	.	.	.	.	.	.	.
4BB-/	.	.	8f\	.	.	8D\	De-	.	8F/	De-	.
.	.	.	8g\J)	.	.	8BB-\	-o	.	8G/	-o	.
!	!	!	!LO:N:vis=2	!	!	!	!	!LO:DY:a	!	!	!LO:DY:a
4.BB- 4.BBB-^^/	2ryy	.	(8g/L	2g\	[ <	(>4..BB-/	ve-	[ f	(>4..G/	ve-	[
.	.	.	8dd/	.	.	.	.	.	.	.	f
.	.	.	8ee-/	.	.	.	.	.	.	.	.
8AA 8AAA/	.	.	8dd/J)	.	.	.	.	.	.	.	.
.	.	.	.	.	[[	16AA/)	.	.	16A/)	.	.
*v	*v	*	*	*	*	*	*	*	*	*	*
*	*	*v	*v	*	*	*	*	*	*	*
=35	=35	=35	=35	=35	=35	=35	=35	=35	=35
2AA 2AAA/	.	2aa 2cc#X 2a;\	f	2AA;/	-ro	.	2A;\	-ro	.
2r	.	2r	.	2r	.	.	2r	.	.
=36	=36	=36	=36	=36	=36	=36	=36	=36	=36
*^	*	*^	*	*	*	*	*	*	*
!	!	!	!	!	!	!	!	!LO:DY:a	!	!	!
(4A/	2.D\	.	2.dd/	(>4f#X\	p	4A\	Ge-	mf	1r	.	.
4G/	.	.	.	4g\	.	4G\	-ni-	.	.	.	.
4F#X/	.	.	.	8a\L	.	4F#X\	-tum	.	.	.	.
.	.	.	.	8b-\	.	.	.	.	.	.	.
[4D/)	4D\	.	8ccn/L	8ccn\	.	4D\	non	.	.	.	.
.	.	.	8dd/J	8dd\J)	.	.	.	.	.	.	.
*	*	*	*v	*v	*	*	*	*	*	*	*
!!LO:PB:g=original
=37	=37	=37	=37	=37	=37	=37	=37	=37	=37	=37
*xywh-13:3,1489,5211,1125	*xywh-13:3,1489,5211,1125	*	*xywh-13:3,1489,5211,1125	*	*xywh-13:-6,866,5271,753	*	*	*xywh-13:37,35,5167,934	*	*
4G/	2D\]	.	(8b-\L	.	(4.B-\	fac-	.	1r	.	.
.	.	.	8dd\	.	.	.	.	.	.	.
4A/	.	.	8b-\	.	.	.	.	.	.	.
!	!	!	!	!	!LO:N:vis=4	!	!	!	!	!
.	.	.	8dd\J)	.	8A\)	.	.	.	.	.
4B-:/	4D: 4GG:\	I	(8dd\L	.	4G\	-tum	.	.	.	.
.	.	.	8cc#X\	.	.	.	.	.	.	.
4G/	4ryy	I	8dd\	.	4r	.	.	.	.	.
.	.	.	8b-\J)	.	.	.	.	.	.	.
*	*	*	*	*	*	*	*	*clefF4	*	*
=38	=38	=38	=38	=38	=38	=38	=38	=38	=38	=38
*	*	*	*^	*	*	*	*	*	*	*
*	*	*	*	*	*	*	*	*	*ITrd0c0	*	*
!	!	!	!	!	!	!	!	!	!	!	!LO:HP:a
4G^/	2.C\	.	2.ccn/	4b- 4en\	.	1r	.	.	4G\	Con-	>
4Fn/	.	.	.	4f\	.	.	.	.	4F\	-sub-	.
!	!	!	!	!	!	!	!	!	!LO:N:vis=4	!	!
4En/	.	.	.	8g\L	.	.	.	.	4.En\	-stan-	]
.	.	.	.	8a\	.	.	.	.	.	.	.
4C/	4C\	.	8b-/L	8b-\	.	.	.	.	.	.	.
.	.	.	8cc/J	8cc\J	.	.	.	.	8C\	-ti-	.
*	*	*	*v	*v	*	*	*	*	*	*	*
=39	=39	=39	=39	=39	=39	=39	=39	=39	=39	=39
4F/	2F\	.	(8a\L	.	1r	.	.	(4.A\	-a-	.
.	.	.	8cc\	.	.	.	.	.	.	.
4G/	.	.	8b-\	.	.	.	.	.	.	.
.	.	.	8cc\J)	.	.	.	.	8G\)	-lem	.
4A:/	4C: 4FF:\	I	(8a\L	.	.	.	.	4F\	Pa-	.
.	.	.	8ff\	.	.	.	.	.	.	.
4F/	4ryy	I	8cc\	.	.	.	.	4F\	-tri	.
.	.	.	8a\J)	.	.	.	.	.	.	.
*v	*v	*	*	*	*	*	*	*	*	*
=40	=40	=40	=40	=40	=40	=40	=40	=40	=40
*	*	*^	*	*	*	*	*	*	*
2.G 2.GG\	.	4dd 4bn 4f/	2ryy	f	4D\	per	.	4F\	per	.
!	!	!	!	!	!	!	!LO:DY:a	!	!	!
.	.	4cc 4en/	.	.	4C\	quem	<	4En\	quem	.
.	.	4b-X/	8g\L	.	4BBn\	om-	.	4D\	o-	.
.	.	.	8f\J	.	.	.	.	.	.	.
4G 4GG\	.	8cc/L	8e\L	.	8C\	-ni-	.	8En\	-mni-	.
.	.	8dd/J	8f\J	.	8D\	-a	[	8F\	-a	.
=41	=41	=41	=41	=41	=41	=41	=41	=41	=41	=41
*^	*	*	*	*	*	*	*	*	*	*
!	!	!	!	!	!	!	!	!LO:DY:a	!	!	!LO:DY:a
2G 2GG\	2ryy	.	4dd 4bn 4f/	2f\	sf	4.GG/	fac-	f	4.G\	fa-	f
.	.	.	[4g/	.	.	.	.	.	.	.	.
.	.	.	.	.	.	8BBn/	-ta	.	8D\	-cta	.
(4C/	2C\	.	4cc/	2g] 2en\	.	4C\	sunt	.	4En\	sunt	.
4BB-X/	.	.	4een/	.	.	4BB-X\	qui	.	4C\	qui	.
*v	*v	*	*	*	*	*	*	*	*	*	*
=42	=42	=42	=42	=42	=42	=42	=42	=42	=42	=42
4C 4AA\)	.	4ff/	4f\	.	(4AA/	prop-	.	(4F\	prop-	.
4C\	.	8cc/L	4en\	.	4C\)	.	.	4G\)	.	.
.	.	8b-X/J	.	.	.	.	.	.	.	.
4F 4FF\	.	4a/	[>4f\	.	4F\	-ter	.	4A\	-ter	.
.	.	8qcc/	.	.	.	.	.	4qqc/	.	.
4D\	.	4b-/	4f\]	.	4D\	nos	.	4B-\	nos	.
!!LO:LB:g=original
=43	=43	=43	=43	=43	=43	=43	=43	=43	=43	=43
*^	*	*	*	*	*	*	*	*	*	*
*xywh-13:11,3696,5280,1211	*xywh-13:11,3696,5280,1211	*	*xywh-13:11,3696,5280,1211	*xywh-13:11,3696,5280,1211	*	*xywh-13:11,3099,5280,727	*	*	*xywh-13:20,2536,5245,727	*	*
4C/	2C\	.	4a 4f/	4ryy	.	4C\	ho-	.	4A\	ho-	.
4En^/	.	.	2cc^/	4g\	.	4En\	-mi-	.	4G\	-mi-	.
4F/	4FF\	.	.	4ff 4a 4f\	.	4F\	-nes	.	4F\	-nes	.
8F/L	4F\	.	8a/L	4f\	.	4F\	et	.	(8F\L	et	.
8G/J	.	.	8b-/J	.	.	.	.	.	8G\J)	.	.
=44	=44	=44	=44	=44	=44	=44	=44	=44	=44	=44	=44
4A:/	2.C: 2.FF:\	.	4cc^/	2f\	.	4F\	pro-	.	4A\	pro-	.
!	!	!	!	!	!LO:HP:t=cres	!	!	!	!	!	!
4G/	.	.	4b-^/	.	<	4G\	-pter	.	4B-\	-pter	.
!	!	!	!	!	!	!LO:TX:Bi:t=cres-:problem=dynamics with extention lines	!	!LO:HP:a:t=cres-	!LO:TX:Bi:t=cres-:problem=dynamics with extention lines	!	!LO:HP:a:t=cres-
4F/	.	.	4a^/	2f\	.	4A\	nos-	<	4c\	no-	<
8G/L	4C 4FF\	.	8b-/L	.	.	8G\	-tram	.	8B-\	-stram	.
8A/J	.	.	8cc/J	.	.	8A\	sa-	.	8c\	sa-	.
=45	=45	=45	=45	=45	=45	=45	=45	=45	=45	=45	=45
4B-/	2F\	.	4dd^/	2f\	.	4B-\	-lu-	.	4d\	-lu-	.
8A/L	.	.	8cc/L	.	.	8A\	-tem	.	8c\	-tem	.
8B-/J	.	.	8dd/J	.	.	8B-\	des-	[	8d\	de-	[
4.c:/	4.F: 4.FF:\	.	4.ee-^/	4.a 4.f\	sf	4.c^^\	-cen-	.	4.e-^^\	-scen-	.
8A 8F\	8ryy	.	8cc 8f/	8f\	.	8A\	-dit	.	8c\	-dit	.
=46	=46	=46	=46	=46	=46	=46	=46	=46	=46	=46	=46
*	*	*	*	*^	*	*	*	*	*	*	*
4A 4F\	4ryy	.	4a 4f/	4f\	4ryy	f	4F\	de	.	4A\	de	.
!LO:TX:b:i:t=Colla voce	!	!	!	!	!	!	!	!	!	!	!	!
8A^/L	4C 4FF\	.	4ee-/	8cc^>\L	4f\	.	8A^\L	coe-	.	(8c^\L	coe-	.
8G^/J	.	.	.	8b-^>\J	.	.	8G^\J	.	.	8B-^\J)	.	.
2F 2FF;\	2ryy	.	2ee- 2a;/	2f\	2ryy	sfz	2F;\	-lis	.	2A;\	-lis	.
*	*	*	*	*	*	*	*	*	*	*clefG2	*	*
*v	*v	*	*	*	*	*	*	*	*	*	*	*
*	*	*v	*v	*v	*	*	*	*	*	*	*
!!LO:LB:g=original
=47||	=47||	=47||	=47||	=47||	=47||	=47||	=47||	=47||	=47||
*	*	*^	*	*	*	*	*	*	*
*xywh-13:3,5912,5297,1324	*xywh-13:3,5912,5297,1324	*xywh-13:3,5912,5297,1324	*xywh-13:3,5912,5297,1324	*	*xywh-13:37,5523,5254,441	*	*	*xywh-13:3,4718,5340,891	*	*
*	*	*	*	*	*	*	*	*ITrd8c12	*	*
!	!	!	!	!	!	!	!	!LO:TX:b:i:t=Più\nLento:rj	!	!
!	!	!	!	!	!	!	!	!LO:TX:a:i:t=Tenor Solo Con molto portamento	!	!LO:DY:a
4F 4BB-\	.	4f 4d/	2ryy	p	1ryy	.	.	2F/	Et	p
2F 2BB-\	.	2f 2d/	.	.	.	.	.	.	.	.
.	.	.	4ryy	.	.	.	.	4d\	in-	.
4F 4BB-\	.	8g/L	4e-\	.	.	.	.	4c\	-car-	.
.	.	8a/J	.	.	.	.	.	.	.	.
=48	=48	=48	=48	=48	=48	=48	=48	=48	=48	=48
4.F 4.BB-\	.	(4.b-/	4.d\	<	1ryy	.	.	4.B-\	-na-	.
8B- 8BB-\	.	8ee- 8g\)	8ryy	[	.	.	.	8G/	-tus	.
4B- 4BB-^^\	.	4dd 4f^^\	2ryy	.	.	.	.	4F/	est	.
8F\L	.	4b-\	.	.	.	.	.	4r	.	.
8D\J	.	.	.	.	.	.	.	.	.	.
=49	=49	=49	=49	=49	=49	=49	=49	=49	=49	=49
!	!	!	!	!	!	!	!	!	!	!LO:HP:a
2B- 2BB-\	.	2f 2d/	2ryy	.	1ryy	.	.	4F/	de	<
.	.	.	.	.	.	.	.	4F/	Spi-	.
4D\	.	(>4b-/	4ryy	<	.	.	.	4B-\	-ri-	[
4F\	.	8cc/L	4a\	.	.	.	.	8c\L	-tu	.
.	.	8dd/J)	.	[[	.	.	.	8d\J	.	.
=50	=50	=50	=50	=50	=50	=50	=50	=50	=50	=50
2B- 2BB-\	.	(4ee-/	4g\	.	1ryy	.	.	(4e-\	sanc-	.
.	.	4dd/	4f\	.	.	.	.	4d\)	.	.
4B- 4BB-\	.	4b-/)	4d\	.	.	.	.	4B-\	-to	.
4B- 4BB-\	.	4dd/	4f\	.	.	.	.	4r	.	.
=51	=51	=51	=51	=51	=51	=51	=51	=51	=51	=51
!	!	!	!	!	!	!	!	!	!	!LO:HP:a
2.F 2.FF\	.	2ff [>2a [>2f\	2ryy	sfp	1ryy	.	.	2F/	Ex	<
.	.	4ff/	2a] 2f\]	.	.	.	.	4A/	Ma-	[
[>4F [>4FF\	.	4ee-/	.	.	.	.	.	4G/	-ri-	.
=52	=52	=52	=52	=52	=52	=52	=52	=52	=52	=52
!	!	!LO:TX:b:i:t=colla voce	!	!	!	!	!	!	!	!
2F] 2FF\]	.	4dd 4f/	2ryy	.	1ryy	.	.	(>4F/	-a	.
!	!	!	!	!	!	!	!	!	!	!LO:HP:a
.	.	4cc 4e-/	.	.	.	.	.	4A/)	.	<
2F 2FF\	.	4.a^/	4f\	.	.	.	.	(4c\	vir-	.
.	.	.	.	.	.	.	.	.	.	[
!	!	!	!	!	!	!	!	!	!	!LO:HP:a
.	.	.	8e-\L	.	.	.	.	8e-\)	.	>
.	.	8b-/	8d\J	.	.	.	.	8d\	-gi-	]]
*	*	*v	*v	*	*	*	*	*	*	*
!!LO:PB:g=original
=53	=53	=53	=53	=53	=53	=53	=53	=53	=53
*xywh-14:49,1389,5314,1259	*	*xywh-14:49,1389,5314,1259	*	*xywh-14:40,759,5219,802	*	*	*xywh-14:75,25,5219,931	*	*
2B- 2BB-\	.	2b- 2f 2d\	fp	1r	.	.	2B-^^\	-ne	.
4F 4FF\	.	4f/	.	.	.	.	2r	.	.
4F 4FF\	.	4f/	.	.	.	.	.	.	.
=54	=54	=54	=54	=54	=54	=54	=54	=54	=54
*	*	*^	*	*	*	*	*	*	*
4En 4EEn\	.	4g/	4g\	<	1r	.	.	1ryy	.	.
4E-X 4EE-X\	.	4a/	4f\	.	.	.	.	.	.	.
4D 4DD\	.	4b-/	4f\	.	.	.	.	.	.	.
4C 4CC\	.	4cc/	4a 4f\	[[	.	.	.	.	.	.
*	*	*v	*v	*	*	*	*	*	*	*
=55	=55	=55	=55	=55	=55	=55	=55	=55	=55
!	!	!	!	!	!	!LO:HP:a	!	!	!LO:HP:a
2BB- 2BBB-/	.	4dd 4b- 4f\	f	2D\	Et	<	2F/	Et	<
.	.	2ff 2dd 2f^<\	.	.	.	.	.	.	.
4B- 4BB-\	.	.	.	4B-\	in-	[	4d\	in-	[
4A 4AA\	.	4ff 4cc 4f\	.	4A\	-car-	.	4c\	-car-	.
=56	=56	=56	=56	=56	=56	=56	=56	=56	=56
*^	*	*	*	*	*	*	*	*	*
4G/	2BB-\	.	4r	.	4G\	-na-	.	4B-\	-na-	.
4A/	.	.	4ff 4cc 4f\	.	(8F\L	-tus	.	(>8A/L	-tus	.
.	.	.	.	.	8E-\J)	.	.	8G/J)	.	.
4B-/	4BB-\	.	4r	.	2D^\	est	.	2F^>/	est	.
4r	4ryy	.	[>4ff [>4dd [>4f\	.	.	.	.	.	.	.
*v	*v	*	*	*	*	*	*	*	*	*
=57	=57	=57	=57	=57	=57	=57	=57	=57	=57
2BB- 2BBB-/	.	4ff] 4dd] 4f\]	.	2D\	de	.	2F/	de	.
.	.	4ff 4dd 4f\	.	.	.	.	.	.	.
4B- 4BB-\	.	4r	.	(4BB-\	spi-	.	(4B-\	Spi-	.
4r	.	[>4ff [>4f\	.	4C\)	-[[ri]]-	.	4A\)	.	.
=58	=58	=58	=58	=58	=58	=58	=58	=58	=58
2B- 2BB-\	.	4ff] 4f\]	.	4D\	-ri-	.	4B-\	-ri-	.
.	.	4ff 4f\	.	4F\	-tu	.	4d\	-tu	.
4.A 4.C\	.	4r	.	(4.E-^^\	Sanc-	.	(4.c^^\	sanc-	.
.	.	[>4ff [>4f^<\	.	.	.	.	.	.	.
8B- 8BB-\	.	.	.	8D\)	.	.	8B-\)	.	.
!!LO:LB:g=original
=59	=59	=59	=59	=59	=59	=59	=59	=59	=59
*xywh-14:32,3623,5288,1328	*	*xywh-14:32,3623,5288,1328	*	*xywh-14:32,3071,5305,828	*	*	*xywh-14:23,2458,5323,836	*	*
!	!	!	!	!	!	!LO:HP:a	!	!	!LO:HP:a
4A 4F\	.	4ff] 4f\]	.	2AA/	-to	<	2F/	-to	<
4r	.	4ff 4f\	.	.	.	.	.	.	.
4FF/	.	4r	.	4F\	ex	[	4A/	ex	[
!	!	!LO:S:s=2:note:problem=note-level slur	!	!	!	!	!	!	!
(4E-\	.	(>4cc (>4g\	.	4E-\	Ma-	.	4G/	Ma-	.
=60	=60	=60	=60	=60	=60	=60	=60	=60	=60
4D\)	.	4b-) 4f\)	.	4D\	-ri-	.	4F/	-ri-	.
4r	.	4r	.	4F\	-a	.	4A\	-a	.
!	!	!	!	!	!	!LO:DY:a	!	!	!LO:DY:a
4.F 4.FF\	.	4.cc 4.a 4.e-\	sf	4.A\	Vir-	p	4.c\	Vir-	p
8C 8FF\	.	8a 8e-\	.	8A\	-gi-	.	8e-\	-gi-	.
=61	=61	=61	=61	=61	=61	=61	=61	=61	=61
*	*	*^	*	*	*	*	*	*	*
*	*	*	*^	*	*	*	*	*	*	*
4BB- 4BBB-/	.	4b- 4d\	2ryy	2ryy	.	2B-\	-ne	.	2d\	-ne	.
4B- 4BB-\	.	4dd 4b- 4d\	.	.	.	.	.	.	.	.	.
4F\	.	4cc/	8g\L	4e-\	.	2r	.	.	2r	.	.
.	.	.	8a\J	.	.	.	.	.	.	.	.
4B- 4BB-\	.	4b-^/	4d\	4ryy	.	.	.	.	.	.	.
*	*	*	*v	*v	*	*	*	*	*	*	*
=62	=62	=62	=62	=62	=62	=62	=62	=62	=62	=62
4E- 4EE-\	.	4g/	4e-\	.	1ryy	.	.	1ryy	.	.
4F 4FF\	.	4a/	8f\L	.	.	.	.	.	.	.
.	.	.	8e-\J	.	.	.	.	.	.	.
4B- 4BB-\	.	4b-/	4d\	.	.	.	.	.	.	.
4r	.	4r	4ryy	.	.	.	.	.	.	.
*	*	*v	*v	*	*	*	*	*	*	*
=63	=63	=63	=63	=63	=63	=63	=63	=63	=63
2.G-X 2.GG-X\	.	4r	.	2B-\	Et	.	1ryy	.	.
.	.	4b- 4d-X/	p	.	.	.	.	.	.
.	.	4b- 4e-/	.	4B-\	ho-	.	.	.	.
4G- 4GG-\	.	4b- 4en/	.	4B-\	-mo	.	.	.	.
=64	=64	=64	=64	=64	=64	=64	=64	=64	=64
2.F 2.FF\	.	4.b- 4.d-X/	.	4.B-\	fac-	.	2r	.	.
.	.	8a 8f 8c/	.	8A\	-tus	.	.	.	.
.	.	4cc 4a 4c\	.	2A\	est	.	4r	.	.
4F 4FF\	.	4f\	.	.	.	.	4F/	Et	.
=65	=65	=65	=65	=65	=65	=65	=65	=65	=65
2.En 2.EEn\	.	4r	.	[2B-\	et	.	[2d-X\	ho-	.
.	.	4b- 4gn 4d-X\	<	.	.	.	.	.	.
.	.	4dd-X 4b- 4d-\	[ >	4B-\]	ho-	.	4d-\]	.	.
4E 4EE\	.	4b- 4g 4d-\	]	4B-\	-mo	.	4d-\	-mo	.
!!LO:LB:g=original
=66	=66	=66	=66	=66	=66	=66	=66	=66	=66
*xywh-14:23,5858,5323,1518	*	*xywh-14:23,5858,5323,1518	*	*xywh-14:15,5305,5297,793	*	*	*xywh-14:32,4753,5323,724	*	*
!	!	!	!	!	!	!LO:HP:a	!	!	!LO:HP:a
2.F 2.FF\	.	(4.dd-X 4.b- 4.d-y\	.	4.B-\	fac-	>	4.d-X\	fac-	>
.	.	8cc 8a 8c\)	.	8A\	-tus	]	8c\	-tus	]
.	.	4cc 4a 4c\	.	2A\	est	.	2c\	est	.
4F 4FF\	.	4f\	.	.	.	.	.	.	.
=67	=67	=67	=67	=67	=67	=67	=67	=67	=67
2G-X 2GG-X\	.	4r	mf	2r	.	.	2r	.	.
.	.	2b- 2d-X/	.	.	.	.	.	.	.
2G- 2GG-\	.	.	.	4B-\	Cru-	.	4B-\	Cru-	.
.	.	4b- 4d-/	.	4B-\	-ci-	.	4B-\	-ci-	.
=68	=68	=68	=68	=68	=68	=68	=68	=68	=68
2.G-X 2.GG-X\	.	4b- [>4d-X\	.	2.B-^^\	-fix-	.	2.d-X^^\	-fi-	.
.	.	4dd-X 4d-\]	.	.	.	.	.	.	.
.	.	4b- 4d-\	.	.	.	.	.	.	.
4E-^^\	.	4cc-X 4g-X 4c-X^^\	.	4E-\	-us	.	4c-X\	-xus	.
=69	=69	=69	=69	=69	=69	=69	=69	=69	=69
4F 4FF\	.	4r	.	4.D-X\	e-	.	4.B-\	e-	.
!	!	!	!LO:DY:rj	!	!	!	!	!	!
4r	.	4b- 4d-X/	p	.	.	.	.	.	.
.	.	.	.	8D-\	-ti-	.	8B-\	-ti-	.
4F 4FF\	.	4r	.	4C\	-am	.	4An\	-am	.
4r	.	4an 4e-/	.	4C\	pro	.	4A\	pro	.
=70	=70	=70	=70	=70	=70	=70	=70	=70	=70
!	!	!	!	!	!	!LO:HP:a	!	!	!LO:HP:a
2.BB- 2.BBB-/	.	4r	.	2BB-\	no-	>	2B-\	no-	>
.	.	(4b- 4d-X/	<	.	.	.	.	.	.
.	.	4dd-X 4f/	[	4BB-\	-bis	]	4B-\	-bis	]
.	.	.	>	.	.	.	.	.	.
4F 4FF\	.	4b- 4d-/)	]]	4r	.	.	4r	.	.
=71	=71	=71	=71	=71	=71	=71	=71	=71	=71
*	*	*^	*	*^	*	*	*	*	*
!	!	!	!	!	!	!	!	!LO:DY:a	!	!	!LO:DY:a
2.En 2.EEn^\	.	4r	4ryy	.	2.En\	2ryy	pas-	p	2.B-\	pas-	p
.	.	2.b-/	4d-X\	<	.	.	.	.	.	.	.
.	.	.	4c\	[	.	4ryy	.	.	.	.	.
.	.	.	.	>	.	.	.	.	.	.	.
4E 4EE\	.	.	8d-\L	.	4G/	4E\	-sus	.	4B-\	-sus	.
.	.	.	8c\J	]]	.	.	.	.	.	.	.
*	*	*v	*v	*	*	*	*	*	*	*	*
*	*	*	*	*v	*v	*	*	*	*	*
=72	=72	=72	=72	=72	=72	=72	=72	=72	=72
2.F 2.FF\	.	4B-\	<	(2F\	et	.	2.B-\	et	.
.	.	4b- 4d-X/	.	.	.	.	.	.	.
.	.	4dd-X 4f\	[ >	4D-X\)	se-	.	.	.	.
4F 4FF\	.	4b- 4d-\	]]	4BB-\	.	.	4B-\	se-	.
!!LO:PB:g=original
=73	=73	=73	=73	=73	=73	=73	=73	=73	=73
*	*	*^	*	*^	*	*	*	*	*
*xywh-15:2,1320,5211,1346	*	*xywh-15:2,1320,5211,1346	*xywh-15:2,1320,5211,1346	*	*xywh-15:2,1320,5211,1346	*xywh-15:36,842,5184,738	*	*	*xywh-15:62,43,5184,955	*	*
!	!	!	!	!	!	!LO:S:s=1:note:problem=note-level slur 	!	!	!	!	!
2.F 2.FF\	.	4b-/	2.e- 2.c\	.	2F/	(>2FF\	-pul-	.	4B-\	-pul-	.
!	!	!LO:TX:b:i:t=rall	!	!	!	!	!	!	!LO:TX:a:i:t=rall.	!	!
.	.	4an/	.	.	.	.	.	.	4An\	.	.
!	!	!	!	!	!LO:TX:a:i:t=rall.	!	!	!	!	!	!
.	.	4gn/	.	.	4E-\)	2ryy	.	.	4Gn\	.	.
4F 4FF\	.	4a/	8f\L	.	4F\	.	-tus	.	4A\	-tus	.
.	.	.	8e-\J	.	.	.	.	.	.	.	.
*	*	*v	*v	*	*	*	*	*	*	*	*
*	*	*	*	*v	*v	*	*	*	*	*
=74	=74	=74	=74	=74	=74	=74	=74	=74	=74
!	!	!	!	!	!	!LO:DY:a:rj	!	!	!LO:DY:a:rj
2.BB- 2.BBB-;/	.	2.b- 2.d-X;\	p	2.BB-;\	est	p	2.B-;\	est	p
4r	.	4r	.	4r	.	.	4r	.	.
=75||	=75||	=75||	=75||	=75||	=75||	=75||	=75||	=75||	=75||
*k[b-e-]	*	*k[b-e-]	*	*	*	*	*	*	*
*M2/2	*	*M2/2	*	*	*	*	*	*	*
*met(c|)	*	*met(c|)	*	*	*	*	*	*	*
!	!	!LO:TX:a:Bi:t=Allegro	!	!	!	!	!LO:TX:a:Bi:t=Allegro	!	!
4B- 4BB-\	.	4b- 4f 4dn\	f	1r	.	.	1r	.	.
4F 4FF\	.	8a/L	.	.	.	.	.	.	.
.	.	[>8f/J	.	.	.	.	.	.	.
4D 4DD\	.	4b- 4f\]	.	.	.	.	.	.	.
4C 4CC\	.	8ccL 8f\	.	.	.	.	.	.	.
.	.	8e-\J	.	.	.	.	.	.	.
=76	=76	=76	=76	=76	=76	=76	=76	=76	=76
*	*	*^	*	*	*	*	*	*	*
4BB- 4BBB-/	.	4b- 4d\	4ryy	.	1r	.	.	1r	.	.
4D 4DD^>/	.	8cc/L	4f\	.	.	.	.	.	.	.
.	.	8b-/J	.	.	.	.	.	.	.	.
4E- 4EE-^>/	.	4cc/	8cc\L	.	.	.	.	.	.	.
.	.	.	8g\	.	.	.	.	.	.	.
4F 4FF^>/	.	4r	8a\	.	.	.	.	.	.	.
.	.	.	[>8f\J	.	.	.	.	.	.	.
=77	=77	=77	=77	=77	=77	=77	=77	=77	=77	=77
!	!	!	!	!	!	!	!LO:DY:a	!	!	!LO:DY:a
4D 4BB-\	.	4b-/	4f\]	.	4BB-\	Et	f	4B-\	Et	f
4F 4FF\	.	8a/L	4ryy	<	8F\	re-	.	8A\	re-	.
.	.	8f/J	.	.	8E-\	-sur-	.	8F/	-su-	.
4B- 4BB-\	.	4b-/	4d\	[	4D\	-re-	.	4B-\	-re-	.
4A 4AA\	.	4cc/	4f 4c\	.	4C\	-xit	.	4c\	-xit	.
=78	=78	=78	=78	=78	=78	=78	=78	=78	=78	=78
8B-L 8BB-\	.	4dd/	[>4f 4d\	.	4BB-\	ter-	.	4d\	ter-	.
8BB-\	.	.	.	.	.	.	.	.	.	.
8C\	.	8cc/L	4f\]	.	8C\	-ti-	.	8c\	-zi-	.
8D\J	.	8b-/J	.	.	8D\	-a	.	8B-\	-a	.
4E-^^\	.	8cc/L	4c\	.	4E-\	di-	.	4c\	Di-	.
.	.	8g/	.	.	.	.	.	.	.	.
4F^^\	.	8a/	8f\L	.	8F\	-e	.	8A/	-e	.
.	.	8cc/J	8e-\J	.	8E-\	se-	.	8F/	se-	.
*	*	*v	*v	*	*	*	*	*	*	*
!!LO:LB:g=original
=79	=79	=79	=79	=79	=79	=79	=79	=79	=79
*xywh-15:10,3673,5280,1276	*	*xywh-15:10,3673,5280,1276	*	*xywh-15:45,3109,5141,694	*	*	*xywh-15:45,2570,5150,668	*	*
4BB- 4BBB-/	.	4b- 4d/	.	4D\	-cun-	.	4B-\	-cun-	.
4C 4CC^>/	.	8ffL 8a\	.	8E-\	-dum	.	8A\	-dum	.
.	.	8f\J	.	8F\	scrip-	.	8F/	scrip-	.
4D 4DD^>/	.	8ffL 8b-\	.	4D\	-tu-	.	4B-\	-tu-	.
.	.	8f\J	.	.	.	.	.	.	.
4E- 4EE-^>/	.	8ffL 8cc 8a\	.	4C\	-ras	.	4c\	-ras	.
.	.	8f\J	.	.	.	.	.	.	.
=80	=80	=80	=80	=80	=80	=80	=80	=80	=80
4.F 4.BB-\	.	(8ffL 8dd\	.	(4BB-\	et	.	4d\	et	.
.	.	8f\	.	.	.	.	.	.	.
.	.	.	.	.	.	.	16qqe-/LL	.	.
.	.	.	.	.	.	.	16qqd/JJ	.	.
.	.	8cc\	.	8C\)	.	.	8c\	.	.
8D\	.	8b-\J)	.	8D\	as-	.	8B-\	as-	.
4E-\	.	(8cc\L	.	4E-\	-cen-	.	4c\	-cen-	.
.	.	8g\	.	.	.	.	.	.	.
4F 4FF\	.	8a\	.	8F\	-dit	.	8F/	-dit	.
.	.	8f\J)	.	8F\	in	.	8A/	in	.
=81	=81	=81	=81	=81	=81	=81	=81	=81	=81
*	*	*^	*	*	*	*	*	*	*
2BB- 2BBB-/	.	(8b-/L	4d\	.	[2BB-\	coe-	.	(8B-\L	Coe-	.
.	.	8a/	.	.	.	.	.	8A\J)	.	.
.	.	8g/	4ryy	.	.	.	.	8G\	-lum	.
.	.	8f/J	.	.	.	.	.	8F\	as-	.
2BB- 2BBB-/	.	8g/L	8g\	.	8BB-\L]	.	.	(8G\L	-cen-	.
.	.	8a/	4f\	.	8C\	.	.	8A\	.	.
.	.	8b-/	.	.	8D\J	-lum	.	8B-\	.	.
.	.	8cc/J)	8e-\	.	8E-\	as-	.	8c\J)	.	.
=82	=82	=82	=82	=82	=82	=82	=82	=82	=82	=82
2BB- 2BBB-/	.	(8dd/L	8d\L	.	(8F\L	-cen-	.	(8d\L	-dit	.
.	.	8cc/	8e-\	.	8E-\J)	.	.	8c\	.	.
.	.	8b-/	8d\	.	8D\	-dit	.	8B-\J)	.	.
.	.	8a/J	8c\J	.	8C\	in	.	8A\	in	.
2BB- 2BBB-/	.	8b-/L	8d\L	.	8D\L	coe-	.	8B-\L	coe-	.
.	.	8cc/	8e-\	.	8E-\J	.	.	8c\J	.	.
.	.	8dd/	8f\	.	8F\	-lum	.	8d\	-lum	.
.	.	8ee-/J	8g\J	.	8G\	as-	.	8e-\	as-	.
*	*	*v	*v	*	*	*	*	*	*	*
=83	=83	=83	=83	=83	=83	=83	=83	=83	=83
!	!	!	!	!	!	!LO:DY:a:rj	!	!	!LO:DY:a:rj
2BB- 2BBB-/	.	2ff 2dd 2f\)	ff	2A-X\	-cen-	f	2f\	-cen-	f
4AA-X 4AAA-X/	.	4dd 4b- 4f\	.	4A-\	-dit	.	4d\	-dit	.
4AA- 4AAA-/	.	4b- 4f 4d\	.	4A-\	in	.	4d\	in	.
!!LO:LB:g=original
=84	=84	=84	=84	=84	=84	=84	=84	=84	=84
*xywh-15:10,5984,5306,1424	*	*xywh-15:10,5984,5306,1424	*	*xywh-15:28,5402,5228,746	*	*	*xywh-15:2,4854,5315,686	*	*
(>8AA-XL 8AAA-y/	.	(8ddL 8f^<\	sf	(8A-X\L	coe-	.	(8d\L	coe-	.
8GGJ 8GGG/)	.	8ee-J 8e-\)	.	8G\J)	.	.	8e-\J)	.	.
4GG 4GGG/	.	4ee- 4e-\	.	4G\	-lum	.	4e-\	-lum	.
4F 4BB-\	.	4d 4A/	p	2r	.	.	2r	.	.
4E-\	.	4e- 4G/	.	.	.	.	.	.	.
=85	=85	=85	=85	=85	=85	=85	=85	=85	=85
*^	*	*	*	*	*	*	*	*	*
4.An/	[>2FF\	.	4.cc 4.c^^\	.	4.An\	se-	.	4.c\	se-	.
8G/	.	.	(8b-\	.	8G\	-det	.	8B-\	-det	.
4F/	4FF\]	.	8aL 8f\	.	8F\	ad	.	8A\	ad	.
.	.	.	8b- 8g\	.	8G\	dex-	.	8B-\	dex-	.
4E-/	4EE-\	.	8cc 8a\	.	8A\	-te-	.	8c\	-te-	.
.	.	.	8aJ 8f\)	.	8F\	-ram	.	8A\	-ram	.
*v	*v	*	*	*	*	*	*	*	*	*
=86	=86	=86	=86	=86	=86	=86	=86	=86	=86
4E- 4EE-\	.	4cc 4c^^\	.	4E-\	pa-	.	4c\	pa-	.
4D 4DD\	.	4b- 4B-^^\	.	4D\	-tris	.	4B-\	-tris	.
(8E-\L	.	(>8c/L	.	4r	.	.	4r	.	.
8D\J)	.	8B-/J)	p	.	.	.	.	.	.
4D\	.	4B-/	.	4BB-^^\	et	.	4d^^\	Et	.
=87	=87	=87	=87	=87	=87	=87	=87	=87	=87
4D 4DD^^\	.	4.dd 4.d^^\	.	4.D^^\	i-	.	4.d^^\	i-	.
4F#X 4FF#X\	.	.	.	.	.	.	.	.	.
.	.	8a 8d\	.	8F#X\	-te-	.	8A\	-te-	.
4G 4GG\	.	4b- 4g\	.	8G\	-rum	.	8B-\	-rum	.
.	.	.	.	8G\	ven-	.	8B-\	ven-	.
4E- 4EE-\	.	(8ccL 8g\	.	8E-\	-tu-	.	8c\	-tu-	.
.	.	8ddJ 8f#X\)	.	8D\	-rus	.	8d\	-rus	.
=88	=88	=88	=88	=88	=88	=88	=88	=88	=88
*	*	*	*^	*	*	*	*	*	*
4D 4DD\	.	4dd 4f#X^^\	.	.	4.D^^\	est	.	4.d^^\	est	.
4F#X 4FF#X\	.	8ddL 8d\	.	.	.	.	.	.	.	.
.	.	8cc\J	.	.	8F#X\	cum	.	8A\	cum	.
!	!	!	!LO:HP:a	!LO:HP:a=2	!	!	!LO:HP:a	!	!	!LO:HP:a
4G 4GG\	.	4b- 4g\	<	<	4G\	glo-	<	4B-\	glo-	<
(8E-L 8EE-\	.	(8ccL 8g\	.	.	8E-\	-ri-	.	8c\	-ri-	.
8DJ 8DD\)	.	8ddJ 8f#X\)	[[	[[	8D\	-a	[[	8d\	-a	[
*	*	*	*v	*v	*	*	*	*	*	*
=89	=89	=89	=89	=89	=89	=89	=89	=89	=89
!	!	!	!	!	!	!LO:DY:a	!	!	!LO:DY:a
4C 4CC/	.	4ee- 4g^^\	sf	4.C\	ju-	f	4.e-\	ju-	f
4r	.	4ee- 4g^^\	.	.	.	.	.	.	.
.	.	.	.	8C\	-di-	.	8e-\	-di-	.
4D 4DD/	.	4r	.	4.D\	-ca-	.	4.d\	-ca-	.
4r	.	4dd 4f#X\	.	.	.	.	.	.	.
.	.	.	.	8D\	-re	.	8d\	-re	.
!!LO:PB:g=original
=90	=90	=90	=90	=90	=90	=90	=90	=90	=90
*	*	*^	*	*	*	*	*	*	*
*xywh-16:79,1485,5232,1113	*	*xywh-16:79,1485,5232,1113	*xywh-16:79,1485,5232,1113	*	*xywh-16:62,863,5197,768	*	*	*xywh-16:71,34,5215,915	*	*
2E- 2EE-\	.	2cc 2c/	2ryy	sf	4E-\	vi-	.	4c\	vi-	.
.	.	.	.	.	8E-\	-vos	.	8c\	-vos	.
.	.	.	.	.	8E-\	et	.	8c\	et	.
!	!	!	!	!	!	!	!LO:HP:a	!	!	!LO:HP:a
2E- 2EE-\	.	4cc 4c/	4ryy	.	(4E-\	mor-	<	(4c\	mor-	<
.	.	8b-/L	8gL 8B-\	.	8G\)	.	.	8B-\)	.	.
.	.	8cc/J	8c\J	.	8E-\	-tu-	[[	8c\	-tu-	[[
*	*	*v	*v	*	*	*	*	*	*	*
=91	=91	=91	=91	=91	=91	=91	=91	=91	=91
4.D 4.DD\	.	4.dd 4.f#X 4.d/	f	2D\	-os	.	2d\	-os	.
8D\	.	8d/	.	.	.	.	.	.	.
4D\	.	4d/	>	2r	.	.	2r	.	.
4D\	.	4d/	]]	.	.	.	.	.	.
=92	=92	=92	=92	=92	=92	=92	=92	=92	=92
2G 2GG\	.	4bn 4g 4d\	p	4.G\	cu-	.	4.Bn\	cu-	.
.	.	4b 4g 4d\	.	.	.	.	.	.	.
.	.	.	.	8F\	-jus	.	8B\	-jus	.
4C 4CC/	.	4r	.	4En\	re-	.	4c\	re-	.
4r	.	4cc 4en\	.	4C\	-gni	.	4G\	-gni	.
=93	=93	=93	=93	=93	=93	=93	=93	=93	=93
2F 2FF\	.	4r	.	4F\	non	.	4A\	non	.
.	.	4a 4f 4c/	.	8E-X\	e-	.	8A\	e-	.
.	.	.	.	8C\	-rit	.	8A\	-rit	.
4F 4BB-\	.	4r	.	4D\	fi-	.	4B-X\	fi-	.
4r	.	4b-X 4f 4d/	.	4D\	-nis	.	4F/	-nis	.
=94	=94	=94	=94	=94	=94	=94	=94	=94	=94
*	*	*^	*	*	*	*	*	*	*
2E- 2EE-\	.	4g/	[>2B-\	sf	4E-^^\	cu-	.	4G^^/	cu-	.
.	.	(8a/L	.	.	(8F\L	-jus	.	(>8A/L	-jus	.
.	.	8b-/J)	.	.	8G\J)	.	.	8B-/J)	.	.
4F 4FF\	.	4.f 4.d/	4B-\]	.	4.F^^\	re-	.	4.F^^/	re-	.
8D\L	.	.	4ryy	.	.	.	.	.	.	.
8BB-\J	.	8r	.	.	8F\	-gni	.	8B-\	-gni	.
*	*	*v	*v	*	*	*	*	*	*	*
=95	=95	=95	=95	=95	=95	=95	=95	=95	=95
(4F 4FF\	.	4dd 4b- 4d\	>	4F^^\	non	.	4d^^\	non	.
4F#X 4FF#X\	.	4cc 4a 4d\	]	8F#X\	e-	.	8c\	e-	.
.	.	.	.	8F#\	-rit	.	8c\	-rit	.
4G 4GG\)	.	(8b-L 8g 8d\	.	4G\	fi-	.	4B-\	fi-	.
.	.	8gg\	.	.	.	.	.	.	.
4r	.	8dd\	.	4G\	-nis	.	4B-\	-nis	.
.	.	8b-\J)	.	.	.	.	.	.	.
!!LO:LB:g=original
=96	=96	=96	=96	=96	=96	=96	=96	=96	=96
*	*	*^	*	*	*	*	*	*	*
*xywh-16:62,3669,5249,1165	*	*xywh-16:62,3669,5249,1165	*xywh-16:62,3669,5249,1165	*	*xywh-16:36,3073,5258,785	*	*	*xywh-16:53,2503,5241,725	*	*
2A 2AA\	.	4.ff/	2f\	sf	4.Fn\	Et	.	4.c\	Et	.
.	.	8cc/	.	.	8A\	in	.	8c\	in	.
4A 4Fn\	.	4ff 4cc/	4f\	.	4A\	spi-	.	4c\	spi-	.
8G\L	.	8ffL 8b-/	8f\L	<	8G\	-ri-	.	8B-\	-ri-	.
8A\J	.	8ffJ 8b-/	8f\J	.	8A\	-tum	.	8c\	-tum	.
=97	=97	=97	=97	=97	=97	=97	=97	=97	=97	=97
*^	*	*	*	*	*	*	*	*	*	*
4B-\	2ryy	.	4ff 4dd/	4f\	[	4B-\	San-	.	4d\	san-	.
[4B- 4BB-\	.	.	4dd 4b-/	4f\	.	4BB-/	-ctum	.	4B-\	-ctum	.
8B-]L 8BB-/	4BB-\	.	4b-/	4d\	.	4r	.	.	4r	.	.
8A/	.	.	.	.	.	.	.	.	.	.	.
8.G/	8.G\L	.	4b-/	4d\	.	8.G\	Do-	.	8.B-\	Do-	.
16F/Jk	16F\Jk	.	.	.	.	16F\	-mi-	.	16B-\	-mi-	.
*v	*v	*	*	*	*	*	*	*	*	*	*
=98	=98	=98	=98	=98	=98	=98	=98	=98	=98	=98
4En 4EEn\	.	4cc 4g/	4c\	p	2En\	-num	.	2c\	-num	.
4r	.	4cc 4g 4c/	4ryy	.	.	.	.	.	.	.
4C 4CC/	.	4r	2ryy	.	8E\	et	.	8G/	et	.
.	.	.	.	.	8E\	vi-	.	8G/	vi-	.
4r	.	4cc 4g 4en/	.	.	8C\	-vi-	.	8c\	-vi-	.
.	.	.	.	.	8E\	-fi-	.	8B-\	-fi-	.
*	*	*v	*v	*	*	*	*	*	*	*
=99	=99	=99	=99	=99	=99	=99	=99	=99	=99
2A 2F\	.	8r	.	4F\	-can-	.	4A\	-can-	.
.	.	(8f\L	<	.	.	.	.	.	.
!	!	!	!	!	!	!	!LO:N:vis=8	!	!
.	.	8a\	.	4F\	-tem	.	4A\	-tem	.
.	.	8cc\J	[	.	.	.	.	.	.
4FF/	.	8ff\L	>	2r	.	.	2r	.	.
.	.	8cc\	.	.	.	.	.	.	.
4r	.	8a\	.	.	.	.	.	.	.
.	.	8f\J)	]	.	.	.	.	.	.
=100	=100	=100	=100	=100	=100	=100	=100	=100	=100
4F#X 4FF#X\	.	4r	.	4.F#X^^\	qui	.	4.A\	qui	.
!	!	!	!LO:DY:rj	!	!	!	!	!	!
4r	.	4dd 4a 4d\	p	.	.	.	.	.	.
.	.	.	.	8F#\	ex	.	8A\	ex	.
4D 4DD\	.	4r	.	8F#\	pa-	.	8A\	pa-	.
.	.	.	.	8F#\	-tre	.	8A\	-tre	.
4r	.	4cc 4a 4f#X 4d\	.	8D\	fi-	.	8d\	fi-	.
.	.	.	.	8F#\	-li-	.	8c\	-li-	.
!!LO:LB:g=original
=101	=101	=101	=101	=101	=101	=101	=101	=101	=101
*xywh-16:53,5880,5327,1502	*	*xywh-16:53,5880,5327,1502	*	*xywh-16:27,5362,5318,751	*	*	*xywh-16:62,4731,5292,751	*	*
4D 4GG\	.	8r	.	4G\	-o-	.	4B-\	-o-	.
.	.	(8d\L	<	.	.	.	.	.	.
2G\	.	8g\	.	4G\	-que	.	4B-\	-que	.
.	.	8b-\J	.	.	.	.	.	.	.
.	.	8dd\L	.	2r	.	.	2r	.	.
.	.	8b-\	.	.	.	.	.	.	.
4B-\	.	8dd\	.	.	.	.	.	.	.
.	.	8gg\J)	[	.	.	.	.	.	.
=102	=102	=102	=102	=102	=102	=102	=102	=102	=102
4A\	.	(8ffL 8f\	.	4.A\	fi-	.	4.c\	fi-	.
.	.	8a\)	.	.	.	.	.	.	.
4F\	.	(8a\	.	.	.	.	.	.	.
.	.	8cc\J)	.	8F\	-li-	.	8c\	-li-	.
!	!	!	!	!	!	!LO:HP:a:t=cres	!	!	!LO:HP:a:t=cres
4C\	.	8cc\L	.	8F\	-o-	<	8c\	-o-	<
.	.	8ff\	.	8F\	-que	.	8c\	-que	.
4AA\	.	8f\	.	(8G\L	pro-	.	(8B-\L	pro-	.
.	.	8ff\J	.	8A\J)	.	.	8c\J)	.	.
=103	=103	=103	=103	=103	=103	=103	=103	=103	=103
*	*	*	*	*	*	*	*^	*	*
4FF\	.	(>8ccL 8a/	.	4A\	-ce-	.	4f/	4F\	-ce-	.
.	.	8f/	.	.	.	.	.	.	.	.
4F\	.	8en/	.	4F\	-dit	.	4F/	4ryy	-dit	.
.	.	8f/J	<	.	.	.	.	.	.	.
2r	.	8g/L	.	2r	.	.	2r	2ryy	.	.
.	.	8a/	.	.	.	.	.	.	.	.
.	.	8b-/	.	.	.	.	.	.	.	.
.	.	8cc/J)	[[	.	.	.	.	.	.	.
*	*	*	*	*	*	*	*v	*v	*	*
=104	=104	=104	=104	=104	=104	=104	=104	=104	=104
*	*	*^	*	*	*	*	*	*	*
!	!	!	!	!	!	!	!LO:DY:a	!	!	!LO:DY:a
2BB- 2BBB-/	.	2ff 2b- 2f 2d\	2ryy	f	4.BB-\	qui	f	4.d\	Qui	f
.	.	.	.	.	8BB-\	cum	.	8d\	cum	.
4C 4CC/	.	4cc 4a/	8f\L	.	4C\	pa-	.	4c\	Pa-	.
.	.	.	8e-X\J	.	.	.	.	.	.	.
4D 4DD/	.	4b-/	4d\	.	8D\	-tre	.	8B-\	-tre	.
.	.	.	.	.	8D\	et	.	8B-\	et	.
=105	=105	=105	=105	=105	=105	=105	=105	=105	=105	=105
4E- 4EE-/	.	(>8a/L	4c\	.	8E-\	fi-	.	8A/	fi-	.
.	.	8g/)	.	.	8E-\	-li-	.	8G/	-li-	.
4c 4E-\	.	(>8g/	4ryy	.	4E-\	-o	.	4G/	-o	.
.	.	8f#X/J)	.	.	.	.	.	.	.	.
4c 4E-\	.	4g/	2ryy	<	2r	.	.	2r	.	.
4r	.	4cc\	.	[[	.	.	.	.	.	.
*	*	*v	*v	*	*	*	*	*	*	*
=106	=106	=106	=106	=106	=106	=106	=106	=106	=106
2C 2CC/	.	2ee- 2g 2e-\	sf	4.C\	si-	.	4.e-\	si-	.
.	.	.	.	8C\	-mul	.	8e-\	-mul	.
4D 4DD\	.	4dd 4bn 4g 4fn\	.	4D\	a-	.	4d\	a-	.
4E- 4EE-\	.	4cc 4g 4e-\	.	4E-\	-do-	.	4c\	-do-	.
!!LO:PB:g=original
=107	=107	=107	=107	=107	=107	=107	=107	=107	=107
*	*	*^	*	*	*	*	*	*	*
*xywh-17:10,1473,5306,1158	*	*xywh-17:10,1473,5306,1158	*xywh-17:10,1473,5306,1158	*	*xywh-17:62,915,5202,731	*	*	*xywh-17:45,52,5228,923	*	*
4F 4FF\	.	(>8b-/L	[>2e- [>2c\	.	4F\	-ra-	.	(8B-\L	-ra-	.
.	.	8a/)	.	.	.	.	.	8A\J)	.	.
2F 2FF\	.	(>8a/	.	.	4F\	-tur	.	4A\	-tur	.
.	.	8g/J)	.	.	.	.	.	.	.	.
.	.	4a/	4e-] 4c\]	.	4r	.	.	4r	.	.
(8F\L	.	4f/	4ryy	.	8F\	et	.	8.F/	et	.
8E-\J)	.	.	.	.	8E-\	con-	.	.	.	.
!	!	!	!	!	!	!	!	!LO:SIC:v:l:s=con-	!	!
.	.	.	.	.	.	.	.	16F/	cum	.
=108	=108	=108	=108	=108	=108	=108	=108	=108	=108	=108
4D\	.	4b- 4f\	2ryy	.	8D\	-glo-	.	8B-\	glo-	.
.	.	.	.	.	8D\	-ri-	.	8B-\	-ri-	.
2E-\	.	2cc 2g 2e-\	.	sf	2E-^\	-fi-	.	2c^\	-fi-	.
.	.	.	4ryy	.	.	.	.	.	.	.
4F 4FF\	.	4a/	8f\L	.	8F\	-ca-	.	8A\	-ca-	.
.	.	.	8e-\J	.	8E-\	-tur	.	8F\	-tur	.
*	*	*v	*v	*	*	*	*	*	*	*
=109	=109	=109	=109	=109	=109	=109	=109	=109	=109
*^	*	*	*	*	*	*	*	*	*
4F 4BB-\	2ryy	.	4b- 4d/	.	8D\	qui	.	8B-\	qui	.
.	.	.	.	.	8D\	lo-	.	8B-\	lo-	.
2E- 2EE-\	.	.	2cc 2g 2e-/	sf	2E-^\	-cu-	.	2c^\	-cu-	.
.	4ryy	.	.	.	.	.	.	.	.	.
8F/L	4FF\	.	4a 4f/	.	8F\	-tus	.	8A\	-tus	.
8E-/J	.	.	.	.	8E-\	est	.	8F\	est	.
*v	*v	*	*	*	*	*	*	*	*	*
=110	=110	=110	=110	=110	=110	=110	=110	=110	=110
*	*	*^	*	*	*	*	*	*	*
4D\	.	4b- 4f/	2ryy	.	8D\	per	.	8B-\	per	.
.	.	.	.	.	8D\	pro-	.	8B-\	pro-	.
2C 2CC/	.	2ee- 2g 2e-\	.	sf	(2C\	-phe-	.	(2e-^\	-phe-	.
.	.	.	4ryy	.	.	.	.	.	.	.
4AA/	.	8ff/L	4cc 4f\	.	4F\)	.	.	4A\)	.	.
.	.	8ee-/J	.	.	.	.	.	.	.	.
=111	=111	=111	=111	=111	=111	=111	=111	=111	=111	=111
4BB-^^\	.	4.dd/	4.f\	.	2BB-\	-tas	.	2B-\	-tas	.
4B-^^\	.	.	.	.	.	.	.	.	.	.
.	.	8d'>/	8ryy	.	.	.	.	.	.	.
2r	.	8e-'>/L	2ryy	<	2r	.	.	2r	.	.
.	.	8f'>/	.	.	.	.	.	.	.	.
.	.	8g'>/	.	.	.	.	.	.	.	.
.	.	8a'>/J	.	[[	.	.	.	.	.	.
!!LO:LB:g=original
=112	=112	=112	=112	=112	=112	=112	=112	=112	=112	=112
*xywh-17:-7,3764,5306,1115	*	*xywh-17:-7,3764,5306,1115	*xywh-17:-7,3764,5306,1115	*	*xywh-17:71,3163,5167,636	*	*	*xywh-17:36,2536,5175,697	*	*
4BB- 4BBB-/	.	4b- 4f 4d/	4ryy	f	4BB-\	Et	.	4B-\	Et	.
4C 4CC/	.	4a/	8f\L	.	8C\	u-	.	8A\	u-	.
.	.	.	8e-\J	.	8E-\	-nam	.	8F/	-nam	.
4D 4DD/	.	4b-/	4d\	.	4D\	San-	.	4B-\	san-	.
4AA 4AAA/	.	4cc/	8f\L	.	8C\	-ctam	.	8c\	-ctam	.
.	.	.	8e-\J	.	8AA/	Ca-	.	8c\	ca-	.
*	*	*v	*v	*	*	*	*	*	*	*
=113	=113	=113	=113	=113	=113	=113	=113	=113	=113
4.BB- 4.BBB-^^/	.	4.dd 4.d^^\	.	4.BB-\	-tho-	.	4.d\	-th-	.
8E- 8EE-\	.	8cc 8a 8f\	.	8E-\	-li-	.	8c\	-li-	.
4D 4DD\	.	4b- 4f\	.	4D\	-cam	.	4B-\	-cam	.
8E-\L	.	8cc\L	.	(8E-\L	et	.	(8c\L	et	.
8F\J	.	8dd\J	.	8F\J)	.	.	8d\J)	.	.
=114	=114	=114	=114	=114	=114	=114	=114	=114	=114
*	*	*^	*	*	*	*	*	*	*
4.G 4.GG\	.	4.ee- 4.b- 4.e-\	2ryy	sf	4.G^^\	a-	.	4.e-^^\	a-	.
8F\	.	8dd\	.	.	8F\	-po-	.	8d\	-po-	.
8E-\L	.	8cc/L	2f\	.	8E-\	-sto-	.	8c\	-sto-	.
8D\	.	8b-/	.	.	8D\	-li-	.	8B-\	-li-	.
8C\	.	8a/	.	.	8C\	-cam	.	8A\	-cam	.
8D\J	.	8b-/J	.	.	8D\	ec-	.	8B-\	ec-	.
*	*	*v	*v	*	*	*	*	*	*	*
=115	=115	=115	=115	=115	=115	=115	=115	=115	=115
4En\	.	4cc 4g\	p	4.En\	-cle-	.	4.c\	-cle-	.
4r	.	4cc 4g 4c\	.	.	.	.	.	.	.
.	.	.	.	8E\	-si-	.	8G\	-si-	.
!	!	!	!	!	!	!	!LO:N:vis=4	!	!
[4F\	.	4r	.	4F\	-am	.	4.A\	-am	.
8F\L]	.	4a 4f 4c/	.	8F\L	Con-	.	.	.	.
8E-X\J	.	.	.	8E-X\J	.	.	8F\	con-	.
=116	=116	=116	=116	=116	=116	=116	=116	=116	=116
*	*	*^	*	*	*	*	*	*	*
4D\	.	4b-/	4f\	<	8D\	-fi-	.	8B-\	-fi-	.
.	.	.	.	.	8D\	-te-	.	8B-\	-te-	.
4E-\	.	4cc/	4g\	.	4E-\	-or	.	4c\	-or	.
4F\	.	4dd/	2g [>2d\	.	4F\	u-	.	4d\	u-	.
4F#X\	.	4cc/	.	[[	4F#X\	-num	.	4c\	-num	.
=117	=117	=117	=117	=117	=117	=117	=117	=117	=117	=117
4G\	.	4b- 4g/	2d\]	.	4G\	u-	.	4B-\	u-	.
4D\	.	4a 4f#X/	.	.	8F#X\	-num	.	8A\	-num	.
.	.	.	.	.	8D\	bap-	.	8A\	bap-	.
4BB-\	.	4g 4d/	2ryy	.	4BB-\	-tis-	.	4G\	-ti-	.
4D\	.	4a 4f#/	.	.	4D\	-ma	.	4A\	-sma	.
!!LO:LB:g=original
=118	=118	=118	=118	=118	=118	=118	=118	=118	=118	=118
*^	*	*	*	*	*	*	*	*	*	*
*xywh-17:1,5969,5306,1463	*xywh-17:1,5969,5306,1463	*	*xywh-17:1,5969,5306,1463	*xywh-17:1,5969,5306,1463	*	*xywh-17:19,5437,5315,627	*	*	*xywh-17:19,4827,5254,636	*	*
!	!	!	!	!	!LO:DY:t=più f	!	!	!	!	!	!
8G\L	2ryy	.	8b-L 8g/	2ryy	f	8G\	in	.	8B-\	in	.
8D\	.	.	8a 8f#X/	.	.	8D\	re-	.	8A\	re-	.
8BB-\	.	.	8g 8d/	.	.	8BB-\	-mis-	.	8G\	-mis-	.
8D\J	.	.	8aJ 8f#/	.	.	8D\	-si-	.	8A\	-si-	.
8G/L	4GG\	.	4b- 4g/	4ryy	.	8G\	-o-	.	8B-\	-o-	.
8Fn/J	.	.	.	.	.	8F\	-nem	.	8A\	-nem	.
8E-\L	4ryy	.	8g/L	4e-\	.	8E-\	pec-	.	8G\	pec-	.
8C\J	.	.	8a/J	.	.	8C\	-ca-	.	8A\	-ca-	.
*v	*v	*	*	*	*	*	*	*	*	*	*
=119	=119	=119	=119	=119	=119	=119	=119	=119	=119	=119
4.BB- 4.BBB-/	.	(4.b-/	4.d\	sf	(4.BB-\	-to-	.	(4.B-\	-to-	.
8BB- 8BBB-/	.	8a-X 8fn/)	8ryy	>	8D\)	.	.	8A-X\)	.	.
4BB- 4BBB-/	.	(4a- 4f'/	2ryy	.	4F\	-rum	.	4A-\	-rum	.
4D 4DD/	.	4a- 4f'/)	.	]]	4r	.	.	4r	.	.
*	*	*v	*v	*	*	*	*	*	*	*
=120	=120	=120	=120	=120	=120	=120	=120	=120	=120
2.E- 2.EE-\	.	2.g 2.e-/	p	4.E-\	Et	.	4.G/	Et	.
.	.	.	.	8E-\	ex-	.	8G/	ex-	.
.	.	.	.	4E-\	-pe-	.	4G/	-pe-	.
4D\	.	4bn 4g 4f/	.	4D\	-cto	.	4F/	-cto	.
=121	=121	=121	=121	=121	=121	=121	=121	=121	=121
*	*	*^	*	*	*	*	*	*	*
(8D\L	.	(8bn/L	8gL 8f\	.	8D\	re-	.	8F/	re-	.
8C\J)	.	8cc/J)	8e-'>\J	.	8C\	-sur-	.	8E-/	-su-	.
2C\	.	2cc/	2g 2e-\	sf	8C\	-re-	.	8E-/	-re-	.
.	.	.	.	.	8C\	-cti-	.	8E-/	-cti-	.
.	.	.	.	.	4C/	-o-	.	4E-/	-o-	.
4GG\	.	4b/	4g 4d^\	.	4GG^^/	-nem	.	4D/	-nem	.
=122	=122	=122	=122	=122	=122	=122	=122	=122	=122	=122
4C\	.	4cc 4g/	4e-\	.	4.C\	mor-	.	4.E-/	mor-	.
8C\L	.	4cc/	4e-\	.	.	.	.	.	.	.
8AA\J	.	.	.	.	8AA/	-tu-	.	8C/	-tu-	.
4FF/	.	4cc/	4f 4e-\	.	2AA/	-o-	.	(>4C/	-o-	.
4C 4FF/	.	4a 4f 4e-/	4ryy	p	.	.	.	4F/)	.	.
*	*	*v	*v	*	*	*	*	*	*	*
=123	=123	=123	=123	=123	=123	=123	=123	=123	=123
2C 2FF/	.	2a 2f 2e-/	.	2AA/	-rum	.	2F/	-rum	.
2r;	.	2r;	.	2r;	.	.	2r;	.	.
!!LO:PB:g=original
=124	=124	=124	=124	=124	=124	=124	=124	=124	=124
*M2/4	*	*M2/4	*	*M2/4	*	*	*M2/4	*	*
*xywh-18:49,1320,5297,1190	*	*xywh-18:49,1320,5297,1190	*	*xywh-18:41,724,5349,733	*	*	*xywh-18:170,0,5142,862	*	*
!	!	!	!LO:DY:a=2	!	!	!LO:DY:a	!LO:TX:a:i:t=Più Stretto	!	!
4BB- 4BBB-\	.	4b- 4d/	f	4BB-/	Et	f	2ryy	.	.
8D\L	.	4r	.	8D/	vi-	.	.	.	.
8BB-\J	.	.	.	8BB-/	-tam	.	.	.	.
=125	=125	=125	=125	=125	=125	=125	=125	=125	=125
4F\	.	8r	.	4F\	ven-	.	2ryy	.	.
.	.	8d/L	.	.	.	.	.	.	.
!	!	!	!LO:DY:rj	!	!	!	!	!	!
8D\L	.	8f/	p	8D\	-tu-	.	.	.	.
8G\J	.	8e-/J	.	8G\	-ri	.	.	.	.
=126	=126	=126	=126	=126	=126	=126	=126	=126	=126
4F 4FF\	.	8d/L	.	4F\	sae-	.	2ryy	.	.
.	.	8f/	.	.	.	.	.	.	.
8E-\L	.	8g/	.	8E-\	-cu-	.	.	.	.
8C\J	.	8a/J	.	8C\	-li	.	.	.	.
=127	=127	=127	=127	=127	=127	=127	=127	=127	=127
4BB-\	.	(8b-\L	.	4BB-/	a-	.	2ryy	.	.
.	.	16a\L	.	.	.	.	.	.	.
.	.	16g\JJ	.	.	.	.	.	.	.
4B-^\	.	8f\L)	.	4BB-/	-men	.	.	.	.
.	.	8g\J	.	.	.	.	.	.	.
=128	=128	=128	=128	=128	=128	=128	=128	=128	=128
!	!	!	!	!	!	!	!	!	!LO:DY:a
2F\	.	8aL 8f\	.	(4AA/	a-	.	4F/	Et	f
.	.	8b-J 8g\	.	.	.	.	.	.	.
.	.	8ccL 8a\	.	8C\L	.	.	8A\	vi-	.
.	.	8aJ 8f\	.	8F\J	.	.	8F/	-tam	.
=129	=129	=129	=129	=129	=129	=129	=129	=129	=129
8F\L	.	8ff/L	f	2F\)	-men	.	4c\	ven-	.
16A\L	.	16cc/L	.	.	.	.	.	.	.
16G\JJ	.	16b-/JJ	.	.	.	.	.	.	.
8F\L	.	8a/L	.	.	.	.	8A\	-tu-	.
8BB-\J	.	8dd/J	.	.	.	.	8d\	-ri	.
=130	=130	=130	=130	=130	=130	=130	=130	=130	=130
*^	*	*	*	*	*	*	*	*	*
4C/	2C\	.	4cc\	.	(2En^\	a-	.	4c\	sae-	.
.	.	.	8qeen/	.	.	.	.	.	.	.
4c/	.	.	8dd\L	.	.	.	.	8B-\	-cu-	.
.	.	.	8cc\J	.	.	.	.	8G\	-li	.
*v	*v	*	*	*	*	*	*	*	*	*
=131	=131	=131	=131	=131	=131	=131	=131	=131	=131
*	*	*^	*	*	*	*	*	*	*
8F\L	.	[2ff/	8a\L	.	8F\L	.	.	4F/	a-	.
8E-X\	.	.	8cc\	.	8E-X\	.	.	.	.	.
8D\	.	.	8dd\	.	8D\J)	.	.	4F/	-men	.
8C\J	.	.	8ee-X\J	.	8C\	-men	.	.	.	.
=132	=132	=132	=132	=132	=132	=132	=132	=132	=132	=132
4BB-\	.	2ff/]	8dd\L	.	4BB-\	Et	.	(4B-\	a-	.
.	.	.	8b-\J	.	.	.	.	.	.	.
8D\L	.	.	[>4f^/	.	8D\	vi-	.	4F\	.	.
8BB-\J	.	.	.	.	8BB-\	-tam	.	.	.	.
*	*	*v	*v	*	*	*	*	*	*	*
=133	=133	=133	=133	=133	=133	=133	=133	=133	=133
4F^^\	.	8f\L]	.	4F\	ven-	.	4d\)	.	.
.	.	16b-\L	.	.	.	.	.	.	.
.	.	16a\JJ	.	.	.	.	.	.	.
8D\L	.	4b-\	.	8D\	-tu-	.	4B-\	-men	.
8G\J	.	.	.	8G\	-ri	.	.	.	.
!!LO:LB:g=original
=134	=134	=134	=134	=134	=134	=134	=134	=134	=134
*xywh-18:49,3606,5297,1164	*	*xywh-18:49,3606,5297,1164	*	*xywh-18:41,3054,5228,603	*	*	*xywh-18:58,2432,5262,759	*	*
4F 4FF^\	.	8a\L	.	4F\	sae-	.	(2A\	a-	.
.	.	8cc\J	.	.	.	.	.	.	.
8E-\L	.	4ff^<\	.	8E-\	-cu-	.	.	.	.
8C\J	.	.	.	8C\	-li	.	.	.	.
=135	=135	=135	=135	=135	=135	=135	=135	=135	=135
4BB-\	.	(8dd\L	.	4BB-\	a-	.	8B-\L	.	.
.	.	8g\J)	.	.	.	.	8G\J)	.	.
4AA^\	.	[4dd 4f#X^<\	.	4AA/	-men	.	4F#X^^/	-men	.
=136	=136	=136	=136	=136	=136	=136	=136	=136	=136
!	!	!	!	!	!	!	!	!	!LO:DY:a
4.GG/	.	8dd]L 8g\	.	4GG/	a-	.	4G\	Et	f
.	.	16dd\L	.	.	.	.	.	.	.
.	.	16b-\JJ	.	.	.	.	.	.	.
.	.	[4g^^\	.	4D\	-men	.	8B-\	vi-	.
8G\	.	.	.	.	.	.	8G\	-tam	.
=137	=137	=137	=137	=137	=137	=137	=137	=137	=137
4.GG/	.	8b-L 8g\]	.	(2G\	a-	.	4d\	ven-	.
.	.	16dd\L	.	.	.	.	.	.	.
.	.	16b-\JJ	.	.	.	.	.	.	.
.	.	4g^^\	.	.	.	.	8B-\	-tu-	.
8G\	.	.	.	.	.	.	8e-\	-ri	.
=138	=138	=138	=138	=138	=138	=138	=138	=138	=138
8F#X\L	.	8a\L	.	4F#X\)	.	.	4d\	sae-	.
8D\J	.	8dd\	.	.	.	.	.	.	.
8C\L	.	8een\J	.	4D\	-men	.	8c\	-cu-	.
8AA\J	.	8ff#X 8cc\	.	.	.	.	8A\	-li	.
=139	=139	=139	=139	=139	=139	=139	=139	=139	=139
*^	*	*^	*	*	*	*	*	*	*
4G 4GG\	4ryy	.	8ggL 8b-/	4b-\	.	(4G\	a-	.	4B-\	a-	.
.	.	.	8een/J	.	.	.	.	.	.	.	.
8F/L	4AA\	.	8ryy	8dd\L	.	8Fn\)	.	.	8A\L	-men	.
8En/J	.	.	8gg/	8cc#XJ 8g\	.	8En\	-men	.	8c#X\J	.	.
*v	*v	*	*	*	*	*	*	*	*	*	*
=140	=140	=140	=140	=140	=140	=140	=140	=140	=140	=140
!	!	!	!	!	!	!	!LO:DY:a	!	!	!
4D\	.	4ff/	4dd 4f\	.	4D\	Et	f	4d\	a-	.
8F\L	.	8a/L	[>4f\	.	8F\	vi-	.	4A\	.	.
8D\J	.	8b-/J	.	.	8D\	-tam	.	.	.	.
=141	=141	=141	=141	=141	=141	=141	=141	=141	=141	=141
4A 4AA\	.	4ccn/	4f\]	.	4A\	ven-	.	4F/	-men	.
8F\L	.	8a/L	[>4f\	.	8F\	-tu-	.	[4d\	a-	.
8B-\J	.	8dd/J	.	.	8B-\	-ri	.	.	.	.
*	*	*v	*v	*	*	*	*	*	*	*
=142	=142	=142	=142	=142	=142	=142	=142	=142	=142
*^	*	*	*	*	*	*	*	*	*
8F\L	4ryy	.	4a 4f^^\]	.	4A\	sae-	.	4d\]	.	.
8A\J	.	.	.	.	.	.	.	.	.	.
8G/L	4AA\	.	8a\L	.	8G\	-cu-	.	4c#X\	-men	.
8En/J	.	.	16bn\L	.	8En\	-li	.	.	.	.
.	.	.	16cc#X\JJ	.	.	.	.	.	.	.
*v	*v	*	*	*	*	*	*	*	*	*
=143	=143	=143	=143	=143	=143	=143	=143	=143	=143
4D\	.	4dd\	.	(4D\	a-	.	(4d\	a-	.
4Cn\	.	8ee-XL 8f\	sf	4F\)	.	.	8cn\L	.	.
.	.	8a\J	.	.	.	.	8A\J)	.	.
!!LO:LB:g=original
=144	=144	=144	=144	=144	=144	=144	=144	=144	=144
*xywh-18:-2,5840,5374,1509	*	*xywh-18:-2,5840,5374,1509	*	*xywh-18:49,5271,5331,733	*	*	*xywh-18:110,4667,5262,707	*	*
4BB- 4BBB-/	.	8b-L 8d/	f	4BB-/	-men	.	4B-\	-men	.
.	.	8cc 8e-/	.	.	.	.	.	.	.
4B- 4BB-\	.	8dd 8f/	.	4r	.	.	4r	.	.
.	.	8b-J 8d/	.	.	.	.	.	.	.
=145	=145	=145	=145	=145	=145	=145	=145	=145	=145
4G 4GG^^\	.	8ee- 8b- 8e-/	.	2r	.	.	2r	.	.
.	.	4ee- 4b- 4e-^/	.	.	.	.	.	.	.
4F 4FF^^\	.	.	.	.	.	.	.	.	.
!	!	!LO:TX:t=P:problem=cross-measure beam	!	!	!	!	!	!	!
.	.	[>8dd [>8b- [>8d/	.	.	.	.	.	.	.
=146	=146	=146	=146	=146	=146	=146	=146	=146	=146
4En 4EEn^^\	.	8dd] 8b-] 8d/]	.	2r	.	.	2r	.	.
.	.	4cc 4b- 4c/	.	.	.	.	.	.	.
4E-X 4EE-X^^\	.	.	.	.	.	.	.	.	.
.	.	8cc 8a 8c/	.	.	.	.	.	.	.
=147	=147	=147	=147	=147	=147	=147	=147	=147	=147
4D 4DD\	.	4b- 4B-/	.	2r	.	.	2r	.	.
4C 4CC\	.	4ee- 4g 4e-/	sf	.	.	.	.	.	.
=148	=148	=148	=148	=148	=148	=148	=148	=148	=148
!	!	!	!	!	!	!LO:DY:a	!	!	!LO:DY:a
4F 4FF\	.	4dd 4b- 4f 4d/	f	(2F\	A-	f	4d\	a-	f
8BB-\L	.	8ddL 8b- 8f 8d/	.	.	.	.	4B-\	-men	.
8D\J	.	8ddJ 8b- 8f 8d/	.	.	.	.	.	.	.
=149	=149	=149	=149	=149	=149	=149	=149	=149	=149
*	*	*^	*	*	*	*	*	*	*
4F\	.	4cc 4a 4f 4c/	4ryy	.	4A\)	.	.	2c^\	a-	.
4F 4FF^^\	.	4a/	8f\L	.	4F\	-men	.	.	.	.
.	.	.	8e-\J	.	.	.	.	.	.	.
=150	=150	=150	=150	=150	=150	=150	=150	=150	=150	=150
!	!	!	!	!	!	!	!LO:DY:a	!	!	!
4BB-^^\	.	4b-/	4d\	.	4BB-\	Et	f	4B-\	-men	.
8D\L	.	4ff 4b- 4f^<\	4ryy	.	8D\	vi-	.	4r	.	.
8BB-\J	.	.	.	.	8BB-\	-tam	.	.	.	.
*	*	*v	*v	*	*	*	*	*	*	*
=151	=151	=151	=151	=151	=151	=151	=151	=151	=151
!	!	!	!	!	!	!	!	!	!LO:DY:a
4F 4FF\	.	4ff 4a 4f^<\	.	(4F^^\	ven-	.	4F/	Et	f
4E- 4FF\	.	4ff 4a 4f^<\	.	4E-\)	.	.	8A/	vi-	.
.	.	.	.	.	.	.	8F/	-tam	.
=152	=152	=152	=152	=152	=152	=152	=152	=152	=152
8D\L	.	4ff 4b- 4f^<\	.	(4D\	-tu-	.	4B-\	ven-	.
8BB-\	.	.	.	.	.	.	.	.	.
8F\	.	4ff 4b- 4f^<\	.	8F\)	.	.	8d\	-tu-	.
8D\J	.	.	.	8D\	-ri	.	8B-\	-ri	.
=153	=153	=153	=153	=153	=153	=153	=153	=153	=153
4F 4FF\	.	4ff 4a 4f^<\	.	(8C\L	sae-	.	4A\	sae-	.
.	.	.	.	8F\J)	.	.	.	.	.
4F 4FF\	.	4ff 4a 4f^<\	.	8E-\	-cu-	.	8A\	-cu-	.
.	.	.	.	8C\	-li	.	8A\	-li	.
=154	=154	=154	=154	=154	=154	=154	=154	=154	=154
4BB-\	.	4dd 4b- 4f\	<	2BB-/	a-	.	2B-\	a-	.
8FL 8BB-\	.	8b-L 8f\	.	.	.	.	.	.	.
8B-J 8BB-\	.	8ddJ 8b-\	[[	.	.	.	.	.	.
=155	=155	=155	=155	=155	=155	=155	=155	=155	=155
2A-X 2BB-\	.	2ff 2dd 2f^<\	sf	2A-X^\	-men	.	2d^\	-men	.
=156	=156	=156	=156	=156	=156	=156	=156	=156	=156
2G 2GG\	.	2ee- 2b- 2e-\	.	(2G\	A-	.	(2e-^\	a-	.
=157	=157	=157	=157	=157	=157	=157	=157	=157	=157
!	!	!LO:TX:b:i:t=rall.	!	!LO:TX:a:i:t=rall.:rj	!	!	!LO:TX:a:i:t=rall.:rj	!	!
2F 2FF\	.	4.ee- 4.a 4.f\	.	2F\)	.	.	4.c^\	.	.
.	.	8cc\	.	.	.	.	8A\)	.	.
=158	=158	=158	=158	=158	=158	=158	=158	=158	=158
2B- 2BB-;<\	.	2b- 2f 2d;\	.	2BB-;/	-men	.	2B-;\	-men	.
==	==	==	==	==	==	==	==	==	==
*-	*-	*-	*-	*-	*-	*-	*-	*-	*-
!!!system-decoration: <g1>{(s3,s4)}
!!!RDF**kern: > = above
!!!RDF**kern: < = below
!!!ENC: Andrzej Kubiczek
!!!END: 2022-02-06
!!!ENC: Andrzej Kubiczek
!!!END: 2022-02-12
!!!IIIF: https://polona.pl/iiif/item/NDI0MDY1OTQ/manifest.json
!!!ENC-iiif: Jan Barakat
!!!END-iiif: 2022-08-19
!!!YEC: Copyright 2022 Narodowy Instytut Fryderyka Chopina (https://polishscores.org)
!!!YEM: License CC-BY-4.0 (https://creativecommons.org/licenses/by/4.0)
